!!!!SEGMENT: pl-sa--50-a-i-50--002_anonim--ad-festum-volate.krn
!!!cenid: 17xx:697
!!!COM: Anonim
!!!COM-rismID: pe30004985
!!!CDT:
!!!CNT:
!!!OTL: Ad festum volate
!!!PDT:
!!!AGN: Sacred
!!!SMS-siglum: PL-SA
!!!SMS-shelfmark: 50/A I 50
!!!SMS-shelfwork: 002 W
!!!SMS-variant:
!!!SMS-altvar:
!!!NIFC-rismSourceID: 1001041149
!!!NIFC-islandoraID:
!!!URL-pdf-islandora:
!!!URL-scan: https://bc.bdsandomierz.pl/dlibra/publication/1298/edition/1266/content @EN{Scan on Cyfrowa Biblioteka Diecezjalna w Sandomierzu} @PL{Skany w portalu Cyfrowa Biblioteka Diecezjalna w Sandomierzu}
!!!ONB-nifc:
!!!AIN: 1 cor 2 empty 1 viola 2 violn 1 vox
!!!key:
**kern	**fba	**dynam	**kern	**dynam	**kern	**dynam	**kern	**dynam	**kern	**text	**kern	**dynam	**kern	**dynam
*part7	*	*part7	*part6	*part6	*part5	*part5	*part4	*part4	*part3	*part3	*part2	*part2	*part1	*part1
*	*	*	*group2	*	*group2	*	*group2	*	*	*	*group1	*	*group1	*
*staff7	*	*	*staff6	*	*staff5	*	*staff4	*	*staff3	*staff3	*staff2	*	*staff1	*
*Iempty	*	*	*Iviola	*	*Ivioln	*	*Ivioln	*	*Ivox	*	*Icor	*	*Iempty	*
*I"Fundamento	*	*	*I"Viola	*	*I"Violino Secundo	*	*I"Violino Primo	*	*I"Canto	*	*I"Corno Secundo et G:	*	*I"Cornu Primo	*
*I'F	*	*	*I'vla	*	*I'vn II	*	*I'Vn I	*	*I'C	*	*I'cor II	*	*I'cor I	*
*clefF4	*	*	*clefC3	*	*clefG2	*	*clefG2	*	*clefC1	*	*clefG2	*	*clefG2	*
*	*	*	*	*	*	*	*	*	*	*	*Trd6c10	*	*Trd6c10	*
*k[f#c#]	*	*	*k[f#c#]	*	*k[f#c#]	*	*k[f#c#]	*	*k[c#f#]	*	*k[]	*	*k[]	*
*D:	*	*	*D:	*	*D:	*	*D:	*	*D:	*	*D:	*	*D:	*
*M4/4	*	*	*M4/4	*	*M4/4	*	*M4/4	*	*M4/4	*	*M4/4	*	*M4/4	*
*met(c)	*	*	*met(c)	*	*met(c)	*	*met(c)	*	*met(c)	*	*met(c)	*	*met(c)	*
*>[A,B,A]	*	*	*>[A,B,A]	*	*>[A,B,A]	*	*>[A,B,A]	*	*>[A,B,A]	*	*>[A,B,A]	*	*>[A,B,A]	*
=1	=1	=1	=1	=1	=1	=1	=1	=1	=1	=1	=1	=1	=1	=1
*>A	*	*	*>A	*	*>A	*	*>A	*	*>A	*	*>A	*	*>A	*
*	*	*	*	*	*	*	*	*	*	*	*2\right	*	*2\right	*
!	!	!	!	!	!	!	!	!	!LO:TX:a:t=P:problem=krzyżyki cc# f#	!	!	!	!	!
!LO:TX:a:i:t=Aria 2da	!	!	!LO:TX:a:i:t=Allo&colon; aſsai	!	!LO:TX:a:i:t=Allo&colon; aſsai	!	!LO:TX:a:i:t=Allo assai	!	!LO:TX:a:i:t=13	!	!LO:TX:a:i:t=Allo&colon; aſsai	!	!LO:TX:a:i:t=Allo aſsai	!
!LO:TX:b:i:t=Ad Festum	!	!	!LO:TX:a:i:t=Aria 2	!	!LO:TX:a:i:t=Aria 2	!	!LO:TX:a:i:t=Aria 2	!	!LO:TX:a:i:t=Aria 2da	!	!LO:TX:a:i:t=Aria 2	!	!LO:TX:a:i:t=Aria 2	!
8D\L	.	.	8F#/L	.	2d/	.	2d/	.	00r	.	2cc\	.	2cc\	.
8D\	.	.	8A/J	.	.	.	.	.	.	.	.	.	.	.
8D\	.	.	8d\L	.	.	.	.	.	.	.	.	.	.	.
8D\J	.	.	8f#\J	.	.	.	.	.	.	.	.	.	.	.
8C#\L	.	.	8e\L	.	2a/	.	2a/	.	.	.	2gg\	.	2gg\	.
8C#\	.	.	8d\	.	.	.	.	.	.	.	.	.	.	.
8C#\	.	.	8e\	.	.	.	.	.	.	.	.	.	.	.
8C#\J	.	.	8c#\J	.	.	.	.	.	.	.	.	.	.	.
=2	=2	=2	=2	=2	=2	=2	=2	=2	=2	=2	=2	=2	=2	=2
!LO:TX:t=P:problem=mixed beam	!	!	!	!	!	!	!	!	!	!	!	!	!	!
8BB/L	.	.	8d\L	.	4dd\	.	4dd\	.	.	.	4ccc\	.	4ccc\	.
8B\	.	.	8b\	.	.	.	.	.	.	.	.	.	.	.
8A\	.	.	8a\	.	16dd\LL	.	16dd\LL	.	.	.	4r	.	4r	.
.	.	.	.	.	16ee\	.	16ee\	.	.	.	.	.	.	.
8G\J	.	.	8g\J	.	16ff#\	.	16ff#\	.	.	.	.	.	.	.
.	.	.	.	.	16gg\JJ	.	16gg\JJ	.	.	.	.	.	.	.
8F#\L	.	.	8f#\L	.	8aa\L	.	8aa\L	.	.	.	8gg\L	.	8gg\L	.
8E\	.	.	8e\	.	8gg\	.	8gg\	.	.	.	8ff\	.	8ff\	.
8F#\	.	.	8d\	.	8ff#\	.	8ff#\	.	.	.	8ee\	.	8ee\	.
8D\J	.	.	8c#\J	.	8ee\J	.	8ee\J	.	.	.	8dd\J	.	8dd\J	.
=3	=3	=3	=3	=3	=3	=3	=3	=3	=3	=3	=3	=3	=3	=3
8F#\L	.	.	4.B/	.	8.dd\L	.	8.ddT\L	.	.	.	4cc\	.	4ee\	.
8F#\	.	.	.	.	.	.	.	.	.	.	.	.	.	.
.	.	.	.	.	16cc#\Jk	.	16cc#\Jk	.	.	.	.	.	.	.
8G\	.	.	.	.	4dd\	.	4dd\	.	.	.	4r	.	4r	.
8G\J	.	.	8A/	.	.	.	.	.	.	.	.	.	.	.
!LO:TX:t=P:problem=mixed beam	!	!	!	!	!	!	!	!	!	!	!	!	!	!
8A\L	.	.	8B/L	.	4gg\	.	4gg\	.	.	.	2r	.	2r	.
8A\	.	.	8A/	.	.	.	.	.	.	.	.	.	.	.
8AA/	.	.	8B/	.	4g/	.	4g/	.	.	.	.	.	.	.
8AA/J	.	.	8c#/J	.	.	.	.	.	.	.	.	.	.	.
=4	=4	=4	=4	=4	=4	=4	=4	=4	=4	=4	=4	=4	=4	=4
!	!	!	!LO:TX:t=P:problem=mixed beam	!	!	!	!	!	!	!	!	!	!	!
8D\L	.	.	8d\L	.	16f#/LL	.	16f#/LL	.	.	.	2r	.	2r	.
.	.	.	.	.	16f#/	.	16f#/	.	.	.	.	.	.	.
8D\	.	.	8f#\	.	16a/	.	16a/	.	.	.	.	.	.	.
.	.	.	.	.	16a/JJ	.	16a/JJ	.	.	.	.	.	.	.
8F#\	.	.	8a\	.	16dd\LL	.	16dd\LL	.	.	.	.	.	.	.
.	.	.	.	.	16dd\	.	16dd\	.	.	.	.	.	.	.
8F#\J	.	.	8A/J	.	16ff#\	.	16ff#\	.	.	.	.	.	.	.
.	.	.	.	.	16ff#\JJ	.	16ff#\JJ	.	.	.	.	.	.	.
!LO:TX:t=P:problem=mixed beam	!	!	!	!	!	!	!	!	!	!	!	!	!	!
8E\L	.	.	8c#\L	.	16ee\LL	.	16ee\LL	.	.	.	4r	.	4r	.
.	.	.	.	.	16ee\	.	16ee\	.	.	.	.	.	.	.
8E\	.	.	8g\	.	16cc#\	.	16cc#\	.	.	.	.	.	.	.
.	.	.	.	.	16cc#\JJ	.	16cc#\JJ	.	.	.	.	.	.	.
8AA/	.	.	8e\	.	16a/LL	.	16a/LL	.	.	.	8r	.	8r	.
.	.	.	.	.	16a/	.	16a/	.	.	.	.	.	.	.
8AA/J	.	.	8c#\J	.	16g/	.	16g/	.	.	.	8g/	.	8g/	.
.	.	.	.	.	16g/JJ	.	16g/JJ	.	.	.	.	.	.	.
=5	=5	=5	=5	=5	=5	=5	=5	=5	=5	=5	=5	=5	=5	=5
!	!	!	!LO:TX:a:t=P:problem=takt dopisany na górze	!	!LO:TX:a:t=P:problem=takt zapisany repetycją	!	!LO:TX:a:t=P:problem=takt zapisany repetycją	!	!	!	!	!	!	!
8D\L	.	.	8d\L	.	16f#/LLyy	.	16f#/LLyy	.	00r	.	4g/	.	4g/	.
.	.	.	.	.	16f#/yy	.	16f#/yy	.	.	.	.	.	.	.
8D\	.	.	8c#\	.	16a/yy	.	16a/yy	.	.	.	.	.	.	.
.	.	.	.	.	16a/JJyy	.	16a/JJyy	.	.	.	.	.	.	.
8F#\	.	.	8d\	.	16dd\LLyy	.	16dd\LLyy	.	.	.	4r	.	4r	.
.	.	.	.	.	16dd\yy	.	16dd\yy	.	.	.	.	.	.	.
8F#\J	.	.	8B\J	.	16ff#\yy	.	16ff#\yy	.	.	.	.	.	.	.
.	.	.	.	.	16ff#\JJyy	.	16ff#\JJyy	.	.	.	.	.	.	.
!LO:TX:t=P:problem=mixed beam	!	!	!	!	!	!	!	!	!	!	!	!	!	!
8E\L	.	.	8B\L	.	16ee\LLyy	.	16ee\LLyy	.	.	.	4r	.	4r	.
.	.	.	.	.	16ee\yy	.	16ee\yy	.	.	.	.	.	.	.
8E\	.	.	8g\	.	16cc#\yy	.	16cc#\yy	.	.	.	.	.	.	.
.	.	.	.	.	16cc#\JJyy	.	16cc#\JJyy	.	.	.	.	.	.	.
8AA/	.	.	8e\	.	16a/LLyy	.	16a/LLyy	.	.	.	8r	.	8r	.
.	.	.	.	.	16a/yy	.	16a/yy	.	.	.	.	.	.	.
8AA/J	.	.	8c#\J	.	16g/yy	.	16g/yy	.	.	.	8g/	.	8g/	.
.	.	.	.	.	16g/JJyy	.	16g/JJyy	.	.	.	.	.	.	.
=6	=6	=6	=6	=6	=6	=6	=6	=6	=6	=6	=6	=6	=6	=6
4D\	.	.	4d\	.	16f#/LL	.	16f#/LL	.	.	.	4g/	.	4g/	.
.	.	.	.	.	16d/	.	16d/	.	.	.	.	.	.	.
.	.	.	.	.	16e/	.	16e/	.	.	.	.	.	.	.
.	.	.	.	.	16f#/JJ	.	16f#/JJ	.	.	.	.	.	.	.
4r	.	.	4r	.	16g/LL	.	16g/LL	.	.	.	4r	.	4r	.
.	.	.	.	.	16a/	.	16a/	.	.	.	.	.	.	.
.	.	.	.	.	16b/	.	16b/	.	.	.	.	.	.	.
.	.	.	.	.	16cc#/JJ	.	16cc#/JJ	.	.	.	.	.	.	.
2rC	.	.	2r	.	8dd\L	.	8dd\L	.	.	.	2r	.	2r	.
.	.	.	.	.	8ee\	.	8ee\	.	.	.	.	.	.	.
.	.	.	.	.	8ff#\	.	8ff#\	.	.	.	.	.	.	.
.	.	.	.	.	8gg\J	.	8gg\J	.	.	.	.	.	.	.
=7	=7	=7	=7	=7	=7	=7	=7	=7	=7	=7	=7	=7	=7	=7
4.D\	.	.	4.f#\	.	16aa\LL	.	16aa\LL	.	.	.	2r	.	2r	.
.	.	.	.	.	16dd\	.	16dd\	.	.	.	.	.	.	.
.	.	.	.	.	16ee\	.	16ee\	.	.	.	.	.	.	.
.	.	.	.	.	16ff#\JJ	.	16ff#\JJ	.	.	.	.	.	.	.
.	.	.	.	.	16gg\LL	.	16gg\LL	.	.	.	.	.	.	.
.	.	.	.	.	16aa\	.	16aa\	.	.	.	.	.	.	.
8E\	.	.	8e\	.	16bb\	.	16bb\	.	.	.	.	.	.	.
.	.	.	.	.	16ccc#\JJ	.	16ccc#X\JJ	.	.	.	.	.	.	.
8F#\L	.	.	8f#\L	.	8ddd\L	.	8ddd\L	.	.	.	4r	.	4r	.
8E\	.	.	8f#\	.	8ddd\	.	8ddd\	.	.	.	.	.	.	.
8F#\	.	.	8f#\	.	8ddd\	.	8ddd\	.	.	.	8r	.	8r	.
8D\J	.	.	8f#\J	.	8ddd\J	.	8ddd\J	.	.	.	8ee\	.	8aa\	.
=8	=8	=8	=8	=8	=8	=8	=8	=8	=8	=8	=8	=8	=8	=8
4E\	.	.	4e\	.	4gg#X\	.	4gg#X\	.	.	.	[2dd\	.	4aa\	.
.	.	.	.	.	8qqbb/	.	8qqaa/	.	.	.	.	.	.	.
8e\L	.	.	8ee\L	.	16aa\LL	.	16aa\LL	.	.	.	.	.	8.dd\L	.
.	.	.	.	.	16gg#\	.	16gg#\	.	.	.	.	.	.	.
8d\J	.	.	8dd\J	.	16aa\	.	16aa\	.	.	.	.	.	.	.
.	.	.	.	.	16bb\JJ	.	16bb\JJ	.	.	.	.	.	16dd\Jk	.
!	!	!	!	!	!	!	!LO:LB:g=original	!	!	!	!	!	!	!
4cn\	.	.	8ccn\L	.	8cccn\L	.	8cccn\L	.	.	.	4dd\]	.	4dd\	.
.	.	.	8dd\	.	8ccc\	.	8ccc\	.	.	.	.	.	.	.
4r	.	.	8dd\	.	8ccc\	.	8ccc\	.	.	.	8r	.	8r	.
.	.	.	8ee\J	.	8ccc\J	.	8ccc\J	.	.	.	8dd\	.	8gg\	.
!	!	!	!	!	!LO:LB:g=original	!	!	!	!	!	!	!	!	!
=9	=9	=9	=9	=9	=9	=9	=9	=9	=9	=9	=9	=9	=9	=9
.	.	.	.	.	.	.	8qqgg/	.	.	.	.	.	.	.
4D/	.	.	4a\	.	4ff#\	.	4ff#\	.	00r	.	[2cc\	.	4gg\	.
.	.	.	.	.	8qqaa/	.	.	.	.	.	.	.	.	.
8d\L	.	.	8dd\L	.	16ggn\LL	.	16ggn\LL	.	.	.	.	.	8.cc\L	.
.	.	.	.	.	16ff#\	.	16ff#\	.	.	.	.	.	.	.
8cn\J	.	.	8ccn\J	.	16gg\	.	16gg\	.	.	.	.	.	.	.
!	!	!	!LO:TX:a:t=P:problem=z”ędna kreska taktowa	!	!	!	!	!	!	!	!	!	!	!
.	.	.	.	.	16aa\JJ	.	16aa\JJ	.	.	.	.	.	16cc\Jk	.
!	!	!	!LO:LB:g=original	!	!	!	!	!	!	!	!	!	!	!
4B-X\	.	.	8b-X\L	.	8bb-X\L	.	8bb-X\L	.	.	.	4cc\]	.	4cc\	.
.	.	.	8d\	.	8bb-\	.	8bb-\	.	.	.	.	.	.	.
4r	.	.	8g\	.	8bb-\	.	8bb-\	.	.	.	4r	.	4r	.
.	.	.	8b-\J	.	8bb-\J	.	8bb-\J	.	.	.	.	.	.	.
=10	=10	=10	=10	=10	=10	=10	=10	=10	=10	=10	=10	=10	=10	=10
8A\L	.	.	8e\L	.	4cc#X\	.	4cc#X\	.	.	.	4g/	.	4gg\	.
8G\	.	.	8e\	.	.	.	.	.	.	.	.	.	.	.
8F#\	.	.	8f#X\	.	8dd\L	.	8dd\L	.	.	.	8g/	.	8gg\	.
8E\J	.	.	8g\J	.	8ee\J	.	8ee\J	.	.	.	8r	.	8r	.
4D\	.	.	8a\L	.	8ff#t\L	.	8ff#t\L	.	.	.	2r	.	2r	.
.	.	.	8bn\	.	16ee\L	.	16ee\L	.	.	.	.	.	.	.
.	.	.	.	.	16ff#\JJ	.	16ff#\JJ	.	.	.	.	.	.	.
4G\	.	.	8b\	.	8gg\L	.	8gg\L	.	.	.	.	.	.	.
.	.	.	8b\J	.	8ff#\J	.	8ff#\J	.	.	.	.	.	.	.
!LO:LB:g=original	!	!	!	!	!	!	!	!	!	!	!LO:LB:g=original	!	!LO:LB:g=original	!
=11	=11	=11	=11	=11	=11	=11	=11	=11	=11	=11	=11	=11	=11	=11
4A\	.	.	4a\	.	8ff#t\L	.	8ff#\L	.	.	.	4r	.	4g/	.
.	.	.	.	.	8ee\J	.	8ee\J	.	.	.	.	.	.	.
8r	.	.	8r	.	8r	.	8r	.	.	.	8r	.	8r	.
8AA/	.	.	8A/	.	16A/LL	.	16A/LL	.	.	.	8g/	.	8g/	.
.	.	.	.	.	16A/JJ	.	16A/JJ	.	.	.	.	.	.	.
8D/L	.	.	8d/L	.	8d/L|	.	8d/L|	.	.	.	8cc\L	.	8cc\L	.
8AA/	.	.	8A/	.	8A/|	.	8A/|	.	.	.	8g\	.	8g\	.
8D/	.	.	8d/	.	8d/|	.	8d/|	.	.	.	8cc\	.	8cc\	.
8F#/J	.	.	8f#/J	.	8f#/J|	.	8f#/J|	.	.	.	8ee\J	.	8ee\J	.
=12	=12	=12	=12	=12	=12	=12	=12	=12	=12	=12	=12	=12	=12	=12
4D\	.	.	4d\	.	4d/	.	4d/	.	.	.	4cc\	.	4cc\	.
8r	.	.	8r	.	8r	.	8r	.	.	.	8r	.	8r	.
8AA/	.	.	8A/	.	16A/LL	.	16A/LL	.	.	.	8g/	.	8g/	.
.	.	.	.	.	16A/JJ	.	16A/JJ	.	.	.	.	.	.	.
8D/L	.	.	8d/L	.	8d/L|	.	8d/L	.	.	.	8cc\L	.	8cc\L	.
8AA/	.	.	8A/	.	8A/|	.	8A/	.	.	.	8g\	.	8g\	.
8D/	.	.	8d/	.	8d/|	.	8d/	.	.	.	8cc\	.	8cc\	.
8F#/J	.	.	8f#/J	.	8f#/J|	.	8f#/J	.	.	.	8ee\J	.	8ee\J	.
=13	=13	=13	=13	=13	=13	=13	=13	=13	=13	=13	=13	=13	=13	=13
8D\L	.	.	8d\L	.	8d/L|	.	8d/L	.	1r	.	8cc\L	.	8cc\L	.
8A\	.	.	8a\	.	8a/|	.	8a/	.	.	.	8gg\	.	8gg\	.
8F#\	.	.	8f#\	.	8f#/|	.	8f#/	.	.	.	8ee\	.	8ee\	.
8d\J	.	.	8dd\J	.	8dd/J|	.	8dd/J	.	.	.	8ccc\J	.	8ccc\J	.
4A\	.	.	4a\	.	4a/	.	4a/	.	.	.	4gg\	.	4gg\	.
4AA/	.	.	4A/	.	4A/	.	4A/	.	.	.	4g/	.	4g/	.
!LO:TX:a:t=[segno]:problem=znak segno na kresce taktowej	!	!	!LO:TX:a:t=[segno]:problem=znak segno na kresce taktowej	!	!LO:TX:a:t=[segno]:problem=znak segno na kresce taktowej	!	!LO:TX:a:t=[segno]:problem=znak segno na kresce taktowej	!	!LO:TX:a:t=[segno]:problem=znak segno na kresce taktowej	!	!LO:TX:a:t=[segno]:problem=znak segno na kresce taktowej	!	!LO:TX:a:t=[segno]:problem=znak segno na kresce taktowej	!
=14||	=14||	=14||	=14||	=14||	=14||	=14||	=14||	=14||	=14||	=14||	=14||	=14||	=14||	=14||
*>B	*	*	*>B	*	*>B	*	*>B	*	*>B	*	*>B	*	*>B	*
*	*	*below	*	*	*	*	*	*	*2\right	*	*	*	*	*
.	.	.	.	.	.	.	.	.	8qqee/	.	.	.	.	.
!	!	!	!	!	!	!LO:DY:a:t=p&colon;	!	!LO:DY:a:t=p	!LO:TX:b:t=P:problem=tekst niewyraźny, brak gwarancji poprawności	!	!	!	!	!
8D\L	.	p	8d\L	p	2d/	p	2d/	p	2dd\	Ad	0r	.	0r	.
8D\	.	.	8A\	.	.	.	.	.	.	.	.	.	.	.
8D\	.	.	8d\	.	.	.	.	.	.	.	.	.	.	.
8D\J	.	.	8f#\J	.	.	.	.	.	.	.	.	.	.	.
8C#\L	.	.	8e\L	.	2a/	.	2a/	.	2a\	fes-	.	.	.	.
8C#\	.	.	8d\	.	.	.	.	.	.	.	.	.	.	.
8C#\	.	.	8e\	.	.	.	.	.	.	.	.	.	.	.
8C#\J	.	.	8B\J	.	.	.	.	.	.	.	.	.	.	.
=15	=15	=15	=15	=15	=15	=15	=15	=15	=15	=15	=15	=15	=15	=15
!LO:TX:t=P:problem=mixed beam	!	!	!	!	!	!	!	!LO:DY:a	!	!	!	!	!	!
8BB/L	.	.	8d\L	.	4dd\	.	4dd\	f	4d/	-tum	.	.	.	.
8B\	.	.	8b\	.	.	.	.	.	.	.	.	.	.	.
8A\	.	.	8a\	.	16dd\LL	.	16dd\LL	.	8ff#\L	Vo-	.	.	.	.
.	.	.	.	.	16ee\	.	16ee\	.	.	.	.	.	.	.
8G\J	.	.	8g\J	.	16ff#\	.	16ff#\	.	8gg\J	.	.	.	.	.
.	.	.	.	.	16gg\JJ	.	16gg\JJ	.	.	.	.	.	.	.
8F#\L	.	.	8f#\L	.	8aa\L	.	8aa\L	.	8aa\L	-la-	.	.	.	.
8E\	.	.	8e\	.	8gg\	.	8gg\	.	8gg\J	.	.	.	.	.
8F#\	.	.	8d\	.	8ff#\	.	8ff#\	.	8ff#\L	-te	.	.	.	.
8D\J	.	.	8c#\J	.	8ee\J	.	8ee\J	.	8ee\J	.	.	.	.	.
!	!	!	!	!	!	!	!LO:LB:g=original	!	!	!	!	!	!	!
=16	=16	=16	=16	=16	=16	=16	=16	=16	=16	=16	=16	=16	=16	=16
.	.	.	.	.	8qqee/	.	8qqee/	.	.	.	.	.	.	.
8F#\L	.	.	4.B/	.	8dd\L	.	8dd\L	.	8dd\L	om-	1r	.	1r	.
8F#\	.	.	.	.	8cc#\J	.	8cc#\J	.	8cc#\J	.	.	.	.	.
8G\	.	.	.	.	4dd\	.	4dd\	.	4dd\	-nes	.	.	.	.
8G\J	.	.	8A/	.	.	.	.	.	.	.	.	.	.	.
!LO:TX:t=P:problem=mixed beam	!	!	!	!	!	!	!	!	!	!	!	!	!	!
8A\L	.	.	8G/L	.	16gg\LL	.	16gg\LL	.	4gg\	Ma-	.	.	.	.
.	.	.	.	.	16ff#\	.	16ff#\	.	.	.	.	.	.	.
8A\	.	.	8A/	.	16ee\	.	16ee\	.	.	.	.	.	.	.
.	.	.	.	.	16dd\JJ	.	16dd\JJ	.	.	.	.	.	.	.
8AA/	.	.	8B/	.	16cc#\LL	.	16cc#\LL	.	4g/	-ri-	.	.	.	.
.	.	.	.	.	16b\	.	16b\	.	.	.	.	.	.	.
8AA/J	.	.	8c#/J	.	16a\	.	16a\	.	.	.	.	.	.	.
.	.	.	.	.	16g\JJ	.	16g\JJ	.	.	.	.	.	.	.
!	!	!	!LO:LB:g=original	!	!LO:LB:g=original	!	!	!	!	!	!	!	!	!
=17	=17	=17	=17	=17	=17	=17	=17	=17	=17	=17	=17	=17	=17	=17
!	!	!	!LO:TX:t=P:problem=mixed beam	!	!	!	!	!	!	!	!	!	!	!
.	.	.	.	.	.	.	.	.	8qqg/	.	.	.	.	.
8D\L	.	.	8d\L	.	16f#/LL	.	16f#/LL	.	4f#/	-am	4g/	.	4g/	.
.	.	.	.	.	16f#/	.	16f#/	.	.	.	.	.	.	.
8D\	.	.	8f#\	.	16a/	.	16a/	.	.	.	.	.	.	.
.	.	.	.	.	16a/JJ	.	16a/JJ	.	.	.	.	.	.	.
8F#\	.	.	8a\	.	16dd\LL	.	16dd\LL	.	4r	.	4r	.	4r	.
.	.	.	.	.	16dd\	.	16dd\	.	.	.	.	.	.	.
8F#\J	.	.	8A/J	.	16ff#\	.	16ff#\	.	.	.	.	.	.	.
.	.	.	.	.	16ff#\JJ	.	16ff#\JJ	.	.	.	.	.	.	.
!LO:TX:t=P:problem=mixed beam	!	!	!	!	!	!	!	!	!	!	!	!	!	!
8E\L	.	.	8d\L	.	16ee\LL	.	16ee\LL	.	4ee\	ho-	4r	.	4r	.
.	.	.	.	.	16ee\	.	16ee\	.	.	.	.	.	.	.
8E\	.	.	8g\	.	16cc#\	.	16cc#\	.	.	.	.	.	.	.
.	.	.	.	.	16cc#\JJ	.	16cc#\JJ	.	.	.	.	.	.	.
8AA/	.	.	8e\	.	16a/LL	.	16a/LL	.	4g/	-no-	8r	.	8r	.
.	.	.	.	.	16a/	.	16a/	.	.	.	.	.	.	.
8AA/J	.	.	8c#\J	.	16g/	.	16g/	.	.	.	8g/	.	8g/	.
.	.	.	.	.	16g/JJ	.	16g/JJ	.	.	.	.	.	.	.
=18	=18	=18	=18	=18	=18	=18	=18	=18	=18	=18	=18	=18	=18	=18
!	!	!	!	!	!LO:TX:a:t=P:problem=takt zapisany repetycją	!	!LO:TX:a:t=P:problem=takt zapisany repetycją	!	!LO:TX:t=P:problem=brak taktu	!	!	!	!	!
8D\L	.	.	8d\L	.	16f#/LLyy	.	16f#/LLyy	.	1ryy	.	4g/	.	4g/	.
.	.	.	.	.	16f#/yy	.	16f#/yy	.	.	.	.	.	.	.
8D\	.	.	8e\	.	16a/yy	.	16a/yy	.	.	.	.	.	.	.
.	.	.	.	.	16a/JJyy	.	16a/JJyy	.	.	.	.	.	.	.
8F#\	.	.	8f#\	.	16dd\LLyy	.	16dd\LLyy	.	.	.	4r	.	4r	.
.	.	.	.	.	16dd\yy	.	16dd\yy	.	.	.	.	.	.	.
8F#\J	.	.	8d\J	.	16ff#\yy	.	16ff#\yy	.	.	.	.	.	.	.
.	.	.	.	.	16ff#\JJyy	.	16ff#\JJyy	.	.	.	.	.	.	.
!LO:TX:t=P:problem=mixed beam	!	!	!	!	!	!	!	!	!	!	!	!	!	!
8E\L	.	.	8g\L	.	16ee\LLyy	.	16ee\LLyy	.	.	.	4r	.	4r	.
.	.	.	.	.	16ee\yy	.	16ee\yy	.	.	.	.	.	.	.
8E\	.	.	8d\	.	16cc#\yy	.	16cc#\yy	.	.	.	.	.	.	.
.	.	.	.	.	16cc#\JJyy	.	16cc#\JJyy	.	.	.	.	.	.	.
8AA/	.	.	8B\	.	16a/LLyy	.	16a/LLyy	.	.	.	8r	.	8r	.
.	.	.	.	.	16a/yy	.	16a/yy	.	.	.	.	.	.	.
8AA/J	.	.	8G\J	.	16g/yy	.	16g/yy	.	.	.	8g/	.	8g/	.
.	.	.	.	.	16g/JJyy	.	16g/JJyy	.	.	.	.	.	.	.
=19	=19	=19	=19	=19	=19	=19	=19	=19	=19	=19	=19	=19	=19	=19
.	.	.	.	.	.	.	.	.	8qqg/	.	.	.	.	.
4D\	.	f	4d\	.	4f#/	.	4f#/	.	4f#/	-ra	4g/	.	4g/	.
8r	.	.	8r	.	8r	.	8r	.	4r	.	8r	.	8r	.
!	!	!	!	!LO:DY:a	!	!LO:DY:a:t=f	!	!LO:DY:a	!	!	!	!LO:DY:a	!	!
16AA/LL	.	.	8A/	f	16A/LL	f	16A/LL	f	.	.	8g/	f	8g/	.
16AA/JJ	.	.	.	.	16A/JJ	.	16A/JJ	.	.	.	.	.	.	.
8D/L	.	.	8d\L	.	8d/L	.	8d/L	.	2r	.	8cc/L	.	8cc/L	.
8AA/	.	.	8A\	.	8A/	.	8A/	.	.	.	8g/	.	8g/	.
8D/	.	.	8d\	.	8d/	.	8d/	.	.	.	8cc/	.	8cc/	.
8F#/J	.	.	8f#\J	.	8f#/J	.	8f#/J	.	.	.	8ee/J	.	8ee/J	.
=20	=20	=20	=20	=20	=20	=20	=20	=20	=20	=20	=20	=20	=20	=20
*tremolo	*	*	*	*	*	*	*	*	*	*	*	*	*	*
*2\right	*	*	*	*	*	*	*	*	*	*	*	*	*	*
!	!	!	!	!	!	!LO:DY:a	!	!LO:DY:a	!	!	!	!	!	!
8D\L	.	.	4d\	.	2d/	p	2d/	p	2dd\	Ad	4cc\	.	4cc\	.
8D\	.	.	.	.	.	.	.	.	.	.	.	.	.	.
8D\	.	.	8r	.	.	.	.	.	.	.	4r	.	4r	.
8D\J	.	.	8f#\	.	.	.	.	.	.	.	.	.	.	.
!	!	!	!	!LO:DY:a	!	!	!	!	!	!	!	!	!	!
8C#\L	.	.	8e\L	p	2a/	.	2a/	.	2a\	fes-	2r	.	2r	.
8C#\	.	.	8d\	.	.	.	.	.	.	.	.	.	.	.
8C#\	.	.	8e\	.	.	.	.	.	.	.	.	.	.	.
8C#\J	.	.	8c#\J	.	.	.	.	.	.	.	.	.	.	.
*Xtremolo	*	*	*	*	*	*	*	*	*	*	*	*	*	*
=21	=21	=21	=21	=21	=21	=21	=21	=21	=21	=21	=21	=21	=21	=21
!LO:TX:t=P:problem=mixed beam	!	!	!	!	!	!	!	!	!	!	!	!	!	!
8BB/L	.	.	8d\L	.	4dd\	.	4dd\	.	4d/	-tum	1r	.	1r	.
8B\	.	.	8c#\	.	.	.	.	.	.	.	.	.	.	.
8F#\	.	.	8B\	.	8dd\L	.	8dd\L	.	4aa\	Vo-	.	.	.	.
8F#\J	.	.	8f#\J	.	8aa\J	.	8aa\J	.	.	.	.	.	.	.
8G\L	.	.	8g\L	.	8gg\L	.	8gg\L	.	(8gg\L	-la-	.	.	.	.
8G\	.	.	8a\	.	8ff#\	.	8ff#\	.	8ff#\	.	.	.	.	.
8G\	.	.	8b\	.	8ee\	.	8ee\	.	8ee\	.	.	.	.	.
8G\J	.	.	8b\J	.	8dd\J	.	8dd\J	.	8dd\J)	.	.	.	.	.
!LO:LB:g=original	!	!	!	!	!	!	!	!	!LO:LB:g=original	!	!	!	!	!
=22	=22	=22	=22	=22	=22	=22	=22	=22	=22	=22	=22	=22	=22	=22
.	.	.	.	.	.	.	.	.	8qqdd/	.	.	.	.	.
4A\	.	.	4e\	.	4cc#\	.	4cc#\	.	4cc#\	-te	4r	.	4r	.
!	!	!LO:DY:t=f	!	!	!	!LO:DY:a:t=f	!	!	!	!	!	!	!	!
8r	.	f	8r	.	8r	f	8r	.	4r	.	8r	.	8r	.
!	!	!	!	!LO:DY:a	!	!	!	!LO:DY:a	!	!	!	!	!	!
16E\LL	.	.	8e\	f	16e/LL	.	16e/LL	f	.	.	8dd\	.	8dd\	.
16E\JJ	.	.	.	.	16e/JJ	.	16e/JJ	.	.	.	.	.	.	.
8A\L	.	.	8a\L	.	8a/L|	.	8a/L	.	2r	.	8gg\L	.	8gg\L	.
8E\	.	.	8e\	.	8e/|	.	8e/	.	.	.	8dd\	.	8dd\	.
8A\	.	.	8a\	.	8a/|	.	8a/	.	.	.	8gg\	.	8gg\	.
8c#\J	.	.	8cc#\J	.	8cc#/J|	.	8cc#/J	.	.	.	8bb\J	.	8bb\J	.
!	!	!	!	!	!	!	!	!	!	!	!LO:LB:g=original	!	!LO:LB:g=original	!
=23	=23	=23	=23	=23	=23	=23	=23	=23	=23	=23	=23	=23	=23	=23
4A\	.	.	4a\	.	4a/	.	4a/	.	4a\	om-	4gg\	.	4gg\	.
!	!	!	!	!	!	!LO:DY:a	!	!LO:DY:a:t=p&colon;	!	!	!	!	!	!
4r	.	.	4r	.	4r	p	4r	p	(8ee\L	.	4r	.	4r	.
.	.	.	.	.	.	.	.	.	8cc#\J)	.	.	.	.	.
*	*	*	*2\right	*	*	*	*2\right	*	*	*	*	*	*	*
2C#/	.	.	2c#\	.	2g/ 2ee	.	2ee\	.	4a\	.	2r	.	2r	.
.	.	.	.	.	.	.	.	.	4gg\	-nes	.	.	.	.
!	!	!	!LO:LB:g=original	!	!	!	!	!	!	!	!	!	!	!
=24	=24	=24	=24	=24	=24	=24	=24	=24	=24	=24	=24	=24	=24	=24
*	*	*	*	*	*^	*	*	*	*	*	*	*	*	*
4D\	.	.	4d\	.	4a/	4f#\	.	4a/	.	8ff#\L	ma-	4cc\	.	4cc\	.
.	.	.	.	.	.	.	.	.	.	8ee\J	-ri-	.	.	.	.
!	!	!	!	!	!	!	!	!	!LO:DY:a	!	!	!	!	!	!
8r	.	f	8r	.	8re	4rAyy	.	8r	f	4dd\	-am	8r	.	8r	.
!	!	!	!	!	!	!	!LO:DY:a:t=f	!	!	!	!	!	!	!	!
16AA/LL	.	.	8A/	.	16A/LL	.	f	16A/LL	.	.	.	8g/	.	8g/	.
16AA/JJ	.	.	.	.	16A/JJ	.	.	16A/JJ	.	.	.	.	.	.	.
8D/L	.	.	8d\L	.	8d/L	2rAyy	.	8d/L	.	2r	.	8cc\L	.	8cc\L	.
8AA/	.	.	8A\	.	8A/	.	.	8A/	.	.	.	8g\	.	8g\	.
8D/	.	.	8d\	.	8d/	.	.	8d/	.	.	.	8cc\	.	8cc\	.
8F#/J	.	.	8f#\J	.	8f#/J	.	.	8f#/J	.	.	.	8ee\J	.	8ee\J	.
*	*	*	*	*	*v	*v	*	*	*	*	*	*	*	*	*
!	!	!	!	!	!	!	!LO:LB:g=original	!	!	!	!	!	!	!
=25	=25	=25	=25	=25	=25	=25	=25	=25	=25	=25	=25	=25	=25	=25
4D\	.	.	4d\	.	4d/	.	4d/	.	2ff#\	Ma-	4cc\	.	4cc\	.
!	!	!	!	!	!	!	!	!LO:DY:a:t=p&colon;	!	!	!	!	!	!
4r	.	.	4r	.	4r	.	4r	p	.	.	4r	.	4r	.
!	!	!	!	!	!	!LO:DY:a:t=p	!	!	!	!	!	!	!	!
2D#X\	.	.	2d#X\	.	2a/	p	2ff#\	.	4.dd\	-ri-	2r	.	2r	.
.	.	.	.	.	.	.	.	.	8cc#\	-am	.	.	.	.
!	!	!	!	!	!LO:LB:g=original	!	!	!	!	!	!	!	!	!
=26	=26	=26	=26	=26	=26	=26	=26	=26	=26	=26	=26	=26	=26	=26
!	!	!	!	!	!	!	!	!	!	!	!	!LO:DY:a	!	!LO:DY:a
4E\	.	.	4e\	.	4g#X/	.	8b\	.	16b\	ho-	4dd\	p	4dd\	p
.	.	.	.	.	.	.	.	.	16e/	-no-	.	.	.	.
.	.	.	.	.	.	.	8r	.	8e/	-ra	.	.	.	.
8r	.	.	8r	.	8r	.	8r	.	4r	.	4r	.	4r	.
!	!	!	!	!	!	!LO:DY:a:t=f	!	!LO:DY:a	!	!	!	!	!	!
8BB/	.	.	8B/	.	16B/LL	f	16B/LL	f	.	.	.	.	.	.
.	.	.	.	.	16B/JJ	.	16B/JJ	.	.	.	.	.	.	.
8E\L	.	.	8e\L	.	8e/L	.	8e/L	.	2r	.	4dd\	.	4dd\	.
8BB\	.	.	8B\	.	8B/	.	8B/	.	.	.	.	.	.	.
8E\	.	.	8e\	.	8e/	.	8e/	.	.	.	8r	.	8r	.
!	!	!	!	!	!	!LO:DY:a	!	!	!	!	!	!	!	!
8G#X\J	.	.	8g#X\J	.	8g#X/J	p	8g#X/J	.	.	.	8ff#X\	.	8ff#X\	.
=27	=27	=27	=27	=27	=27	=27	=27	=27	=27	=27	=27	=27	=27	=27
*tremolo	*	*	*	*	*	*	*	*	*	*	*	*	*	*
!	!	!	!	!	!	!	!	!LO:DY:a:t=p&colon;	!	!	!	!	!	!
8E\L	.	.	8e\L	.	8e/L	.	8e/L	p	2b\	mag-	4dd\	.	4dd\	.
8E\	.	.	8g#X\	.	8g#X/	.	8g#X/	.	.	.	.	.	.	.
8E\	.	.	8b\	.	8b/	.	8b/	.	.	.	4r	.	4r	.
8E\J	.	.	8dd\J	.	8dd/J	.	8dd/J	.	.	.	.	.	.	.
.	.	.	.	.	.	.	.	.	8qqcc#/	.	.	.	.	.
8G#X\L	.	.	8b\L	.	8b/L	.	8b/L	.	2dd\	-no	2r	.	2r	.
8G#X\	.	.	8g#X\	.	8g#X/	.	8g#X/	.	.	.	.	.	.	.
8G#X\	.	.	8e\	.	8e/	.	8e/	.	.	.	.	.	.	.
8G#X\J	.	.	8g#\J	.	8g#/J	.	8g#/J	.	.	.	.	.	.	.
*Xtremolo	*	*	*	*	*	*	*	*	*	*	*	*	*	*
=28	=28	=28	=28	=28	=28	=28	=28	=28	=28	=28	=28	=28	=28	=28
!	!	!	!	!	!	!	!LO:TX:t=P:problem=mixed beam	!	!	!	!	!	!	!
8A\L	.	.	4a\	.	8a\L	.	8a/L	.	8cc#\L	Le-	00r	.	00r	.
8A\	.	.	.	.	8dd\	.	8ff#\	.	8ff#\J	.	.	.	.	.
8D\	.	.	8r	.	8cc#\	.	8ee\	.	8ee\L	-to	.	.	.	.
8D\J	.	.	8f#\	.	8b\J	.	8dd\J	.	8dd\J	.	.	.	.	.
!LO:TX:t=P:problem=mixed beam	!	!	!	!	!	!	!	!	!	!	!	!	!	!
8E\L	.	.	8e\L	.	8e/L	.	8cc#\L	.	8cc#\	pro-	.	.	.	.
8E\	.	.	8d\	.	8d/	.	8b\	.	8b\	-pe-	.	.	.	.
8EE/	.	.	8c#\	.	8c#/	.	8a\	.	8a\L	-ra-	.	.	.	.
8EE/J	.	.	8B\J	.	8B/J	.	8g#X\J	.	8g#X\J	.	.	.	.	.
=29	=29	=29	=29	=29	=29	=29	=29	=29	=29	=29	=29	=29	=29	=29
!LO:TX:t=P:problem=mixed beam	!	!	!	!	!LO:TX:t=P:problem=mixed beam	!	!LO:TX:t=P:problem=mixed beam	!	!	!	!	!	!	!
8AA/L	.	.	8c#\L	.	8A/L	.	8a/L	.	4a\	.	.	.	.	.
8A\	.	.	8f#\	.	8cc#\	.	8aa\	.	.	.	.	.	.	.
8A\	.	.	8f#\	.	8cc#\	.	8aa\	.	4aa\	.	.	.	.	.
8A\J	.	.	8f#\J	.	8cc#\J	.	8aa\J	.	.	.	.	.	.	.
!	!	!	!	!	!	!	!	!	!LO:LB:g=original	!	!	!	!	!
*tremolo	*	*	*	*	*	*	*	*	*	*	*	*	*	*
8A\L	.	.	8f#\L	.	8cc#\L	.	8aa\L	.	16aa\LL	.	.	.	.	.
.	.	.	.	.	.	.	.	.	16gg#X\	.	.	.	.	.
8A\	.	.	8f#\	.	8cc#\	.	8aa\	.	16ff#\	.	.	.	.	.
.	.	.	.	.	.	.	.	.	16ee\JJ	.	.	.	.	.
8A\	.	.	8f#\	.	8dd#X\	.	8aa\	.	16dd\LL	.	.	.	.	.
.	.	.	.	.	.	.	.	.	16cc#\	.	.	.	.	.
8A\J	.	.	8f#\J	.	8dd#\J	.	8aa\J	.	16b\	.	.	.	.	.
.	.	.	.	.	.	.	.	.	16a\JJ	.	.	.	.	.
=30	=30	=30	=30	=30	=30	=30	=30	=30	=30	=30	=30	=30	=30	=30
8E\L	.	.	8e\L	.	8ee\L	.	8gg#X\L	.	4g#X\	.	.	.	.	.
8E\	.	.	8e\	.	8b\	.	8gg#\	.	.	.	.	.	.	.
8E\	.	.	8e\	.	8b\	.	8gg#\	.	4gg#X\	.	.	.	.	.
8E\J	.	.	8e\J	.	8b\J	.	8gg#\J	.	.	.	.	.	.	.
8E\L	.	.	8e\L	.	8b\L	.	8gg#\L	.	16gg#\LL	.	.	.	.	.
.	.	.	.	.	.	.	.	.	16ff#\	.	.	.	.	.
8E\	.	.	8e\	.	8b\	.	8gg#\	.	16ee\	.	.	.	.	.
.	.	.	.	.	.	.	.	.	16dd\JJ	.	.	.	.	.
8E\	.	.	8e\	.	8cc#\	.	8gg#\	.	16cc#\LL	.	.	.	.	.
.	.	.	.	.	.	.	.	.	16b\	.	.	.	.	.
8E\J	.	.	8e\J	.	8cc#\J	.	8gg#\J	.	16a\	.	.	.	.	.
.	.	.	.	.	.	.	.	.	16g#X\JJ	.	.	.	.	.
!	!	!	!LO:LB:g=original	!	!	!	!	!	!	!	!	!	!	!
=31	=31	=31	=31	=31	=31	=31	=31	=31	=31	=31	=31	=31	=31	=31
*	*	*	*tremolo	*	*	*	*	*	*	*	*	*	*	*
8D\L	.	.	8d\L	.	8cc#\L	.	8ff#\L	.	16ff#\LL	.	.	.	.	.
.	.	.	.	.	.	.	.	.	16ee\	.	.	.	.	.
8D\	.	.	8d\	.	8cc#\	.	8ff#\	.	16ff#\	.	.	.	.	.
.	.	.	.	.	.	.	.	.	16gg\JJ	.	.	.	.	.
8D\	.	.	8d\	.	8cc#\	.	8ff#\	.	4ff#\	.	.	.	.	.
8D\J	.	.	8d\J	.	8cc#\J	.	8ff#\J	.	.	.	.	.	.	.
8D\L	.	.	8d\L	.	8cc#\L	.	8ff#\L	.	16ff#\LL	.	.	.	.	.
.	.	.	.	.	.	.	.	.	16ee\	.	.	.	.	.
8D\	.	.	8d\	.	8b\	.	8ff#\	.	16dd\	.	.	.	.	.
.	.	.	.	.	.	.	.	.	16cc#\JJ	.	.	.	.	.
8D\	.	.	8d\	.	8b\	.	8ff#\	.	4b\	.	.	.	.	.
8D\J	.	.	8d\J	.	8b\J	.	8ff#\J	.	.	.	.	.	.	.
*	*	*	*Xtremolo	*	*	*	*	*	*	*	*	*	*	*
=32	=32	=32	=32	=32	=32	=32	=32	=32	=32	=32	=32	=32	=32	=32
8C#/L	.	.	8d\L	.	8b\L	.	8ee\L	.	16ee\LL	.	00r	.	00r	.
.	.	.	.	.	.	.	.	.	16dd\	.	.	.	.	.
8C#/	.	.	8d\	.	8b\	.	8ee\	.	16ee\	.	.	.	.	.
.	.	.	.	.	.	.	.	.	16ff#\JJ	.	.	.	.	.
8C#/	.	.	8d\	.	8b\	.	8ee\	.	4ee\	.	.	.	.	.
8C#/J	.	.	8d\J	.	8b\J	.	8ee\J	.	.	.	.	.	.	.
8C#/L	.	.	8c#\L	.	8a/L	.	8ee\L	.	16ee\LL	.	.	.	.	.
.	.	.	.	.	.	.	.	.	16dd\	.	.	.	.	.
8C#/	.	.	8c#\	.	8a/	.	8ee\	.	16cc#\	.	.	.	.	.
.	.	.	.	.	.	.	.	.	16b\JJ	.	.	.	.	.
8C#/	.	.	8c#\	.	8a/	.	8ee\	.	4a\	.	.	.	.	.
8C#/J	.	.	8c#\J	.	8a/J	.	8ee\J	.	.	.	.	.	.	.
*Xtremolo	*	*	*	*	*	*	*	*	*	*	*	*	*	*
=33	=33	=33	=33	=33	=33	=33	=33	=33	=33	=33	=33	=33	=33	=33
8BB/L	.	.	8B/L	.	8a/L	.	8dd\L	.	16dd\LL	.	.	.	.	.
.	.	.	.	.	.	.	.	.	16cc#\	.	.	.	.	.
8BB/	.	.	8B/	.	8a/	.	8dd\	.	16dd\	.	.	.	.	.
.	.	.	.	.	.	.	.	.	16ee\JJ	.	.	.	.	.
8E/	.	.	8B/	.	8a/	.	8dd\	.	4dd\	.	.	.	.	.
8E/J	.	.	8B/J	.	8a/J	.	8dd\J	.	.	.	.	.	.	.
!	!	!	!	!	!	!	!LO:LB:g=original	!	!	!	!	!	!	!
*tremolo	*	*	*	*	*	*	*	*	*	*	*	*	*	*
8E\L	.	.	8B/L	.	8g#X/L	.	8dd\L	.	2b\	.	.	.	.	.
8E\	.	.	8B/	.	8g#/	.	8dd\	.	.	.	.	.	.	.
8E\	.	.	8f#/	.	8a/	.	8dd\	.	.	.	.	.	.	.
8E\J	.	.	8f#/J	.	8a/J	.	8dd\J	.	.	.	.	.	.	.
!	!	!	!	!	!	!	!	!	!LO:LB:g=original	!	!	!	!	!
=34	=34	=34	=34	=34	=34	=34	=34	=34	=34	=34	=34	=34	=34	=34
*	*	*	*tremolo	*	*	*	*	*	*	*	*	*	*	*
8E\L	.	.	8e\L	.	8b\L	.	8dd\L	.	4e/	.	.	.	.	.
8E\	.	.	8e\	.	8b\	.	8dd\	.	.	.	.	.	.	.
8E\	.	.	8e\	.	8b\	.	8dd\	.	4dd\	.	.	.	.	.
8E\J	.	.	8e\J	.	8b\J	.	8dd\J	.	.	.	.	.	.	.
!	!	!	!	!	!LO:LB:g=original	!	!	!	!	!	!	!	!	!
8E\L	.	.	8e\L	.	8b\L	.	8dd\L	.	16dd\LL	.	.	.	.	.
.	.	.	.	.	.	.	.	.	16cc#\	.	.	.	.	.
8E\	.	.	8e\	.	8b\	.	8dd\	.	16b\	.	.	.	.	.
.	.	.	.	.	.	.	.	.	16a\JJ	.	.	.	.	.
8E\	.	.	8e\	.	8b\	.	8dd\	.	16g#X/LL	.	.	.	.	.
.	.	.	.	.	.	.	.	.	16f#/	.	.	.	.	.
8E\J	.	.	8e\J	.	8b\J	.	8dd\J	.	16e/	.	.	.	.	.
.	.	.	.	.	.	.	.	.	16d/JJ	.	.	.	.	.
*Xtremolo	*	*	*Xtremolo	*	*	*	*	*	*	*	*	*	*	*
=35	=35	=35	=35	=35	=35	=35	=35	=35	=35	=35	=35	=35	=35	=35
*	*	*	*	*	*tremolo	*	*	*	*	*	*	*	*	*
8A\L	.	.	8e\L	.	8a/L	.	8cc#\L	.	4c#/	-te	.	.	.	.
8A\	.	.	8e\	.	8a/	.	8cc#\	.	.	.	.	.	.	.
8D\	.	.	8d\	.	8a/	.	8ff#\	.	8ff#\	pro-	.	.	.	.
8D\J	.	.	8d\J	.	8a/J	.	8ff#\J	.	8ee\	-pe-	.	.	.	.
8D\L	.	.	8d\L	.	8a/L	.	8ff#\L	.	8dd\L	-ra-	.	.	.	.
8D\	.	.	8d\	.	8a/	.	8ff#\	.	8cc#\	.	.	.	.	.
8D#X\	.	.	8d#X\	.	8a/	.	8ff#\	.	8b\	.	.	.	.	.
8D#\J	.	.	8d#\J	.	8a/J	.	8ff#\J	.	8a\J	.	.	.	.	.
*	*	*	*	*	*Xtremolo	*	*	*	*	*	*	*	*	*
!LO:LB:g=original	!	!	!	!	!	!	!	!	!	!	!	!	!	!
=36	=36	=36	=36	=36	=36	=36	=36	=36	=36	=36	=36	=36	=36	=36
!	!	!	!	!	!	!	!	!	!LO:SIC:v:s=gg#	!	!	!	!	!
.	.	.	.	.	8qqa/	.	.	.	8qqa/	.	.	.	.	.
4E\	.	.	4e\	.	4g#X/	.	4b\	.	4g\	-te	4dd\	.	4dd\	.
8r	.	.	8r	.	8r	.	8r	.	4r	.	4r	.	4r	.
!	!	!	!	!	!	!LO:DY:a:t=f	!	!LO:DY:a:t=f&colon;	!	!	!	!	!	!
8BB/	.	.	8B/	.	16B/LL	f	16B/LL	f	.	.	.	.	.	.
.	.	.	.	.	16B/JJ	.	16B/JJ	.	.	.	.	.	.	.
8E\L	.	.	8e\L	.	8e/L	.	8e/L	.	2r	.	4dd\	.	4dd\	.
8BB\	.	.	8B\	.	8B/	.	8B/	.	.	.	.	.	.	.
8E\	.	.	8e\	.	8e/	.	8e/	.	.	.	8r	.	8r	.
8G#X\J	.	.	8g#X\J	.	8g#/J	.	8g#X/J	.	.	.	8ff#X\	.	8ff#X\	.
=37	=37	=37	=37	=37	=37	=37	=37	=37	=37	=37	=37	=37	=37	=37
*tremolo	*	*	*	*	*	*	*	*	*	*	*	*	*	*
!	!	!	!	!	!	!LO:DY:a:t=p	!	!LO:DY:a:t=p	!	!	!	!	!	!
8E\L	.	.	8e\L	.	8e/L	p	8e/L	p	2e/	om-	4dd\	.	4dd\	.
8E\	.	.	8g#X\	.	8g#X/	.	8g#X/	.	.	.	.	.	.	.
8E\	.	.	8b\	.	8b/	.	8b/	.	.	.	4r	.	4r	.
8E\J	.	.	8dd\J	.	8dd/J	.	8dd/J	.	.	.	.	.	.	.
8G#X\L	.	.	8b\L	.	8b/L	.	8b/L	.	2dd\	-nes	2r	.	2r	.
8G#X\	.	.	8g#X\	.	8g#X/	.	8g#X/	.	.	.	.	.	.	.
8G#X\	.	.	8e\	.	8e/	.	8e/	.	.	.	.	.	.	.
8G#X\J	.	.	8g#\J	.	8g#/J	.	8g#/J	.	.	.	.	.	.	.
*Xtremolo	*	*	*	*	*	*	*	*	*	*	*	*	*	*
=38	=38	=38	=38	=38	=38	=38	=38	=38	=38	=38	=38	=38	=38	=38
8A\L	.	.	4a\	.	8a\L	.	8a\L	.	(8cc#\L	Lau-	1r	.	1r	.
8A\	.	.	.	.	8dd\	.	8ff#\	.	8ff#\J)	.	.	.	.	.
8D\	.	.	8r	.	8cc#\	.	8ee\	.	8ee\L	-des	.	.	.	.
8D\J	.	.	8f#\	.	8b\J	.	8dd\J	.	8dd\J	.	.	.	.	.
*tremolo	*	*	*	*	*	*	*	*	*	*	*	*	*	*
8E\L	.	.	8e\L	.	4e/	.	8cc#\L	.	8cc#\L	de-	.	.	.	.
8E\	.	.	8d\	.	.	.	8b\	.	8b\J	.	.	.	.	.
8E\	.	.	8c#\	.	8r	.	8a\	.	8a\L	-ca-	.	.	.	.
8E\J	.	.	8B\J	.	8g#X/	.	8g#X\J	.	8g#X\J	.	.	.	.	.
*Xtremolo	*	*	*	*	*	*	*	*	*	*	*	*	*	*
!	!	!	!LO:LB:g=original	!	!	!	!	!	!	!	!	!	!	!
=39	=39	=39	=39	=39	=39	=39	=39	=39	=39	=39	=39	=39	=39	=39
!	!	!	!	!	!LO:TX:t=P:problem=mixed beam	!	!LO:TX:t=P:problem=mixed beam	!	!	!	!	!	!	!
4A\	.	.	4A/	.	16a/LL	.	16a/LL	.	(8a\L	-te-	4g/	.	4gg\	.
.	.	.	.	.	16aa\	.	16aa\	.	.	.	.	.	.	.
.	.	.	.	.	16gg#X\	.	16gg#X\	.	8aa\J	.	.	.	.	.
.	.	.	.	.	16aa\JJ	.	16aa\JJ	.	.	.	.	.	.	.
8D\L	.	.	4a\	.	8ff#\L	.	4ff#\	.	4ff#\)	-met	4cc\	.	4ee\	.
8D\J	.	.	.	.	8dd\J	.	.	.	.	.	.	.	.	.
4E\	.	.	8e\L	.	8cc#\L	.	8ee\L	.	8ee\L	so-	4dd\	.	4dd\	.
.	.	.	8e\	.	8b\	.	8dd\	.	8dd\J	.	.	.	.	.
4EE/	.	.	8e\	.	8a\	.	8cc#\	.	8cc#\L	-na-	8r	.	8r	.
.	.	.	8e\J	.	8g#X\J	.	8b\J	.	8b\J	.	8dd\	.	8dd\	.
=40	=40	=40	=40	=40	=40	=40	=40	=40	=40	=40	=40	=40	=40	=40
!	!	!	!	!	!	!LO:DY:a	!	!LO:DY:a	!	!	!	!	!	!
4AA/	.	.	8e\L	.	16cc#\LL	f	16cc#\LL	f	4a\	-te	4g/	.	4dd\	.
.	.	.	.	.	16a\	.	16a\	.	.	.	.	.	.	.
.	.	.	8d\	.	16b\	.	16b\	.	.	.	.	.	.	.
.	.	.	.	.	16cc#\JJ	.	16cc#\JJ	.	.	.	.	.	.	.
4r	.	.	8c#\	.	16dd\LL	.	16dd\LL	.	4r	.	4r	.	4r	.
.	.	.	.	.	16ee\	.	16ee\	.	.	.	.	.	.	.
.	.	.	8B\J	.	16ff#\	.	16ff#\	.	.	.	.	.	.	.
.	.	.	.	.	16gg#X\JJ	.	16gg#X\JJ	.	.	.	.	.	.	.
!	!	!	!LO:TX:t=P:problem=mixed beam	!	!	!	!	!	!LO:LB:g=original	!	!	!	!	!
2r	.	.	8A/L	.	8aa'\L	.	8aa\L	.	2aa\	Con-	2r	.	2r	.
.	.	.	8a\	.	8aa'\	.	8aa\	.	.	.	.	.	.	.
.	.	.	8b\	.	8aa'\	.	8aa\	.	.	.	.	.	.	.
.	.	.	8cc#\J	.	8aa'\J	.	8aa\J	.	.	.	.	.	.	.
!	!	!	!	!	!	!	!LO:LB:g=original	!	!	!	!	!	!	!
=41	=41	=41	=41	=41	=41	=41	=41	=41	=41	=41	=41	=41	=41	=41
!	!	!	!	!	!	!	!	!	!	!	!	!LO:DY:a	!	!LO:DY:a:rj
4F#\|	.	.	4f#\	.	4dd#X\	.	4dd#X\	.	4dd#X\	-tus	4ee\	f	2aa\	f
.	.	.	.	.	8qqff#/	.	8qqff#/	.	.	.	.	.	.	.
8B\L|	.	.	8b\L	.	16ee\LL	.	16ee\LL	.	(4ee\	lep-	4r	.	.	.
.	.	.	.	.	16dd#\	.	16dd#\	.	.	.	.	.	.	.
8A\J|	.	.	8a\J	.	16ee\	.	16ee\	.	.	.	.	.	.	.
.	.	.	.	.	16ff#\JJ	.	16ff#\JJ	.	.	.	.	.	.	.
!	!	!	!	!	!LO:LB:g=original	!	!	!	!	!	!	!	!	!
4G#X\|	.	.	8gn\L	.	8ggn'\L	.	8ggn\L	.	2ggn\)	ta-	2r	.	4aa\	.
.	.	.	8g\	.	8gg'\	.	8gg\	.	.	.	.	.	.	.
4r	.	.	8a\	.	8gg'\	.	8gg\	.	.	.	.	.	8r	.
.	.	.	8b\J	.	8gg'\J	.	8gg\J	.	.	.	.	.	8aa\	.
!	!	!	!	!	!	!	!	!	!	!	!LO:LB:g=original	!	!LO:LB:g=original	!
=42	=42	=42	=42	=42	=42	=42	=42	=42	=42	=42	=42	=42	=42	=42
4E\|	.	.	4e\	.	4cc#\	.	4cc#X\	.	(4cc#\	.	4dd\	.	2gg\	.
.	.	.	.	.	8qqee/	.	8qqee/	.	.	.	.	.	.	.
8A\L|	.	.	8a\L	.	16ddn\LL	.	16ddn\LL	.	4ddn\)	.	4r	.	.	.
.	.	.	.	.	16cc#\	.	16cc#\	.	.	.	.	.	.	.
8G\J|	.	.	8g\J	.	16dd\	.	16dd\	.	.	.	.	.	.	.
.	.	.	.	.	16ee\JJ	.	16ee\JJ	.	.	.	.	.	.	.
4Fn\|	.	.	8fn\L	.	8ffn\L	.	8ffn\L	.	2ffn\	.	2r	.	4gg\	.
.	.	.	8d\	.	8ff\	.	8ff\	.	.	.	.	.	.	.
4r	.	.	8e\	.	8ff\	.	8ff\	.	.	.	.	.	8r	.
.	.	.	8f\J	.	8ff\J	.	8ff\J	.	.	.	.	.	8gg\	.
=43	=43	=43	=43	=43	=43	=43	=43	=43	=43	=43	=43	=43	=43	=43
.	.	.	.	.	8qqa/	.	8qqa/	.	.	.	.	.	.	.
4E\	.	.	4e\	.	4.g#X/	.	4.g#X/	.	4ee\	-te	4dd\	.	4aa\	.
8r	.	.	8r	.	.	.	.	.	8r	.	8r	.	8r	.
8E\	.	.	8E/	.	16e/LL	.	16e/LL	.	8e/	Ma-	8dd\	.	8dd\	.
.	.	.	.	.	16e/JJ	.	16e/JJ	.	.	.	.	.	.	.
8AA/L|	.	.	8A/L	.	8a/L|	.	8a/L	.	8a/L	-ri-	8gg\L	.	8gg\L	.
8EE/|	.	.	8E/	.	8e/|	.	8e/	.	8e/J	.	8dd\	.	8dd\	.
8AA/|	.	.	8A/	.	8a/|	.	8a/	.	8a\L	-am	8gg\	.	8gg\	.
8C#/J|	.	.	8c#X/J	.	8cc#/J|	.	8cc#/J	.	8cc#\J	.	8bb\J	.	8bb\J	.
=44	=44	=44	=44	=44	=44	=44	=44	=44	=44	=44	=44	=44	=44	=44
8AA/L	.	.	8A\L	.	8a\L	.	8a\L	.	8cc#\	ho-	4gg\	.	4gg\	.
8E/	.	.	8f#\	.	8ee\	.	8ee\	.	8ee\	-no-	.	.	.	.
8C#/	.	.	8c#\	.	8cc#\	.	8cc#\	.	8cc#\L	-ra-	8r	.	8r	.
8A/J	.	.	8a\J	.	8aa\J	.	8aa\J	.	8aa\J	.	8gg\	.	8gg\	.
4E\	.	.	4e\	.	4ee\	.	4ee\	.	4ee\	.	4dd\|	.	4dd\|	.
4EE/	.	.	4E/	.	4e/	.	4e/	.	4e/	.	4dd\|	.	4dd\|	.
=45	=45	=45	=45	=45	=45	=45	=45	=45	=45	=45	=45	=45	=45	=45
!LO:TX:t=P:problem=mixed beam	!	!	!	!	!	!	!	!	!	!	!	!	!	!
!	!	!	!	!	!	!LO:DY:a:rj:t=p&colon;	!	!LO:DY:a:rj:t=p	!	!	!	!	!	!
8AA/L	.	f	8A\L	.	8A/L	p	2aa\	p	4a\	-te	4g/	.	4g/	.
8A\	.	.	8c#\	.	8c#/	.	.	.	.	.	.	.	.	.
8A\	.	.	8e\	.	8e/	.	.	.	4r	.	4r	.	4r	.
8A\J	.	.	8a\J	.	8a/J	.	.	.	.	.	.	.	.	.
*tremolo	*	*	*	*	*	*	*	*	*	*	*	*	*	*
8G#X\L	.	.	8g#X\L	.	8g#X/L	.	2ee\	.	2r	.	2r	.	2r	.
8G#X\	.	.	8f#\	.	8f#/	.	.	.	.	.	.	.	.	.
8G#X\	.	.	8g#\	.	8g#/	.	.	.	.	.	.	.	.	.
8G#X\J	.	.	8e\J	.	8e/J	.	.	.	.	.	.	.	.	.
=46	=46	=46	=46	=46	=46	=46	=46	=46	=46	=46	=46	=46	=46	=46
.	.	.	.	.	.	.	8qqdd/	.	.	.	.	.	.	.
4AA/	.	.	4.a\	.	4.a/	.	4.cc#\	.	1r	.	1r	.	1r	.
8A\L	.	.	.	.	.	.	.	.	.	.	.	.	.	.
!	!	!	!	!	!	!LO:DY:a	!	!LO:DY:a:t=f&colon;	!	!	!	!	!	!
16A\L	.	.	16a\LL	.	16a/LL	f	16a\LL	f	.	.	.	.	.	.
16B\JJ	.	.	16b\JJ	.	16b/JJ	.	16b\JJ	.	.	.	.	.	.	.
8A\L	.	.	8a\L	.	8a/L	.	8a/L	.	.	.	.	.	.	.
8G\	.	.	8gn\	.	8gn/	.	8gn/	.	.	.	.	.	.	.
8F#\	.	.	8f#\	.	8f#/	.	8f#/	.	.	.	.	.	.	.
8E\J	.	.	8e\J	.	8e/J	.	8e/J	.	.	.	.	.	.	.
!	!	!	!LO:LB:g=original	!	!	!	!	!	!	!	!	!	!	!
=47	=47	=47	=47	=47	=47	=47	=47	=47	=47	=47	=47	=47	=47	=47
!	!	!	!	!	!	!LO:DY:a:t=p	!	!LO:DY:a	!	!	!	!	!	!
8D\L	.	.	4.d\	.	2d/	p	2d/	p	2dd\	Ad	4r	.	4r	.
8D\	.	.	.	.	.	.	.	.	.	.	.	.	.	.
8D\	.	.	.	.	.	.	.	.	.	.	8r	.	8r	.
8D\J	.	.	8f#\	.	.	.	.	.	.	.	16gg\LL	.	16gg\LL	.
.	.	.	.	.	.	.	.	.	.	.	16aa\JJ	.	16aa\JJ	.
8C#\L	.	.	8e\L	.	2a/	.	2a/	.	2a\	fes-	8gg\L	.	8gg\L	.
8C#\	.	.	8d\	.	.	.	.	.	.	.	8ff\	.	8ff\	.
8C#\	.	.	8e\	.	.	.	.	.	.	.	8ee\	.	8ee\	.
8C#\J	.	.	8c#\J	.	.	.	.	.	.	.	8dd\J	.	8dd\J	.
*Xtremolo	*	*	*	*	*	*	*	*	*	*	*	*	*	*
=48	=48	=48	=48	=48	=48	=48	=48	=48	=48	=48	=48	=48	=48	=48
!LO:TX:t=P:problem=mixed beam	!	!	!	!	!	!	!	!LO:DY:t=f	!	!	!	!	!	!
8BB/L	.	.	8d\L	.	4dd\	.	4dd\	f	4d/	-tum	4cc\	.	4cc\	.
8B\	.	.	8b\	.	.	.	.	.	.	.	.	.	.	.
8A\	.	.	8a\	.	16dd\LL	.	16dd\LL	.	8ff#\L	Vo-	4r	.	4r	.
.	.	.	.	.	16ee\	.	16ee\	.	.	.	.	.	.	.
8G\J	.	.	8g\J	.	16ff#\	.	16ff#\	.	8gg\J	.	.	.	.	.
.	.	.	.	.	16gg\JJ	.	16gg\JJ	.	.	.	.	.	.	.
8F#\L	.	.	8f#\L	.	8aa\L	.	8aa\L	.	8aa\L	.	2r	.	2r	.
8E\	.	.	8e\	.	8gg\	.	8gg\	.	8gg\J	.	.	.	.	.
!	!	!	!	!	!	!	!	!	!LO:LB:g=original	!	!	!	!	!
8F#\	.	.	8d\	.	8ff#\	.	8ff#\	.	8ff#\L	.	.	.	.	.
8D\J	.	.	8c#\J	.	8ee\J	.	8ee\J	.	8ee\J	.	.	.	.	.
!LO:LB:g=original	!	!	!	!	!	!	!LO:LB:g=original	!	!	!	!	!	!	!
=49	=49	=49	=49	=49	=49	=49	=49	=49	=49	=49	=49	=49	=49	=49
.	.	.	.	.	8qqee/	.	8qqee/	.	.	.	.	.	.	.
8F#\L	.	.	8B/L	.	8dd\L	.	8dd\L	.	8dd\L	-la-	1r	.	1r	.
8F#\	.	.	8A/	.	8cc#\J	.	8cc#\J	.	8cc#\J	.	.	.	.	.
8G\	.	.	8G/	.	4dd\	.	4dd\	.	4dd\	-te	.	.	.	.
8G\J	.	.	8F#/J	.	.	.	.	.	.	.	.	.	.	.
!	!	!	!	!	!LO:LB:g=original	!	!	!	!	!	!	!	!	!
!LO:TX:t=P:problem=mixed beam	!	!	!	!	!LO:TX:t=P:problem=mixed beam	!	!LO:TX:t=P:problem=mixed beam	!	!	!	!	!	!	!
8A\L	.	.	8E/L	.	16gg\LL	.	16gg\LL	.	4gg\	om-	.	.	.	.
.	.	.	.	.	16g/	.	16g/	.	.	.	.	.	.	.
8A\	.	.	8A/	.	16g/	.	16g/	.	.	.	.	.	.	.
.	.	.	.	.	16g/JJ	.	16g/JJ	.	.	.	.	.	.	.
8AA/	.	.	8c#/	.	16g/LL	.	16g/LL	.	4g/	.	.	.	.	.
.	.	.	.	.	16g/	.	16g/	.	.	.	.	.	.	.
8AA/J	.	.	8A/J	.	16g/	.	16g/	.	.	.	.	.	.	.
.	.	.	.	.	16g/JJ	.	16g/JJ	.	.	.	.	.	.	.
=50	=50	=50	=50	=50	=50	=50	=50	=50	=50	=50	=50	=50	=50	=50
!	!	!	!LO:TX:t=P:problem=mixed beam	!	!	!	!	!	!	!	!	!LO:DY:a	!	!
8D\L	.	.	8D/L	.	16f#/LL	.	16f#/LL	.	4f#/	-nes	4g/	p	4g/	.
.	.	.	.	.	16f#/	.	16f#/	.	.	.	.	.	.	.
8D\	.	.	8d\	.	16a/	.	16a/	.	.	.	.	.	.	.
.	.	.	.	.	16a/JJ	.	16a/JJ	.	.	.	.	.	.	.
8F#\	.	.	8f#\	.	16dd\LL	.	16dd\LL	.	4r	.	4r	.	4r	.
.	.	.	.	.	16dd\	.	16dd\	.	.	.	.	.	.	.
8F#\J	.	.	8d\J	.	16ff#\	.	16ff#\	.	.	.	.	.	.	.
.	.	.	.	.	16ff#\JJ	.	16ff#\JJ	.	.	.	.	.	.	.
!LO:TX:t=P:problem=mixed beam	!	!	!	!	!	!	!	!	!	!	!	!	!	!
8E\L	.	.	8g\L	.	16ee\LL	.	16ee\LL	.	4ee\	Ca-	4r	.	4r	.
.	.	.	.	.	16ee\	.	16ee\	.	.	.	.	.	.	.
8E\	.	.	8e\	.	16cc#\	.	16cc#\	.	.	.	.	.	.	.
.	.	.	.	.	16cc#\JJ	.	16cc#\JJ	.	.	.	.	.	.	.
8AA/	.	.	8c#\	.	16a/LL	.	16a/LL	.	4g/	-ri-	8r	.	8r	.
.	.	.	.	.	16a/	.	16a/	.	.	.	.	.	.	.
8AA/J	.	.	8A\J	.	16g/	.	16g/	.	.	.	8g/	.	8g/	.
.	.	.	.	.	16g/JJ	.	16g/JJ	.	.	.	.	.	.	.
=51	=51	=51	=51	=51	=51	=51	=51	=51	=51	=51	=51	=51	=51	=51
!	!	!	!	!	!LO:TX:a:t=P:problem=takt zapisany repetycją	!	!LO:TX:a:t=P:problem=takt zapisany repetycją	!	!	!	!	!	!	!
8D\L	.	.	8d\L	.	16f#/LLyy	.	16f#/LLyy	.	8f#/L	-te	4g/	.	4g/	.
.	.	.	.	.	16f#/yy	.	16f#/yy	.	.	.	.	.	.	.
8D\	.	.	8e\	.	16a/yy	.	16a/yy	.	8a/J	.	.	.	.	.
.	.	.	.	.	16a/JJyy	.	16a/JJyy	.	.	.	.	.	.	.
8F#\	.	.	8f#\	.	16dd\LLyy	.	16dd\LLyy	.	8dd\	om-	4r	.	4r	.
.	.	.	.	.	16dd\yy	.	16dd\yy	.	.	.	.	.	.	.
8F#\J	.	.	8c#\J	.	16ff#\yy	.	16ff#\yy	.	8ff#\	-nes	.	.	.	.
.	.	.	.	.	16ff#\JJyy	.	16ff#\JJyy	.	.	.	.	.	.	.
!LO:TX:t=P:problem=mixed beam	!	!	!	!	!	!	!	!	!	!	!	!	!	!
8E\L	.	.	8g\L	.	16ee\LLyy	.	16ee\LLyy	.	4ee\	Lau-	4r	.	4r	.
.	.	.	.	.	16ee\yy	.	16ee\yy	.	.	.	.	.	.	.
8E\	.	.	8e\	.	16cc#\yy	.	16cc#\yy	.	.	.	.	.	.	.
.	.	.	.	.	16cc#\JJyy	.	16cc#\JJyy	.	.	.	.	.	.	.
8AA/	.	.	8c#\	.	16a/LLyy	.	16a/LLyy	.	4g/	-des	8r	.	8r	.
.	.	.	.	.	16a/yy	.	16a/yy	.	.	.	.	.	.	.
8AA/J	.	.	8A\J	.	16g/yy	.	16g/yy	.	.	.	8g/	.	8g/	.
.	.	.	.	.	16g/JJyy	.	16g/JJyy	.	.	.	.	.	.	.
=52	=52	=52	=52	=52	=52	=52	=52	=52	=52	=52	=52	=52	=52	=52
4D\	.	.	4d\	.	4f#/	.	4f#/	.	8f#/	ap-	4g/	.	4g/	.
.	.	.	.	.	.	.	.	.	8e/	-ta-	.	.	.	.
!	!	!	!	!	!	!LO:DY:a	!	!	!	!	!	!	!	!LO:DY:a
8r	.	.	8r	.	8r	f	8r	.	4d/	-te	8r	.	8r	f
!	!	!	!	!	!	!	!	!LO:DY:a:t=f&colon;	!	!	!	!LO:DY:a	!	!
8AA/	.	.	8A/	.	16A/LL	.	16A/LL	f	.	.	8g/	f	8g/	.
.	.	.	.	.	16A/JJ	.	16A/JJ	.	.	.	.	.	.	.
!	!	!	!	!LO:DY:a	!	!	!	!	!	!	!	!	!	!
8D/L	.	.	8d\L	f	8d/L	.	8d/L	.	2r	.	8cc\L	.	8cc\L	.
8AA/	.	.	8A\	.	8A/	.	8A/	.	.	.	8g\	.	8g\	.
8D/	.	.	8d\	.	8d/	.	8d/	.	.	.	8cc\	.	8cc\	.
8F#/J	.	.	8f#\J	.	8f#/J	.	8f#/J	.	.	.	8ee\J	.	8ee\J	.
!	!	!	!	!	!	!	!	!	!	!	!LO:LB:g=original	!	!LO:LB:g=original	!
=53	=53	=53	=53	=53	=53	=53	=53	=53	=53	=53	=53	=53	=53	=53
4D\	.	.	4d\	.	4d/	.	4d/	.	8ff#\	Vo-	4cc\	.	4cc\	.
.	.	.	.	.	.	.	.	.	8dd\	-la-	.	.	.	.
!	!	!	!	!	!	!LO:DY:a:t=p	!	!LO:DY:a:t=p&colon;	!	!	!	!	!	!
4r	.	.	4r	.	4r	p	4r	p	4aa\	-te	4r	.	4r	.
*	*	*	*	*	*2\right	*	*	*	*	*	*	*	*	*
2F#\	.	.	2f#\	.	2ccn\	.	2aa\	.	16aa\LL	Ca-	2r	.	2r	.
.	.	.	.	.	.	.	.	.	16gg\	.	.	.	.	.
.	.	.	.	.	.	.	.	.	16ff#\	.	.	.	.	.
.	.	.	.	.	.	.	.	.	16ee\JJ	.	.	.	.	.
.	.	.	.	.	.	.	.	.	16dd\LL	.	.	.	.	.
.	.	.	.	.	.	.	.	.	16cc#\JJ	.	.	.	.	.
.	.	.	.	.	.	.	.	.	16b\	-ri-	.	.	.	.
.	.	.	.	.	.	.	.	.	16a\	-te	.	.	.	.
=54	=54	=54	=54	=54	=54	=54	=54	=54	=54	=54	=54	=54	=54	=54
!	!	!	!	!	!	!LO:DY:a:t=f&colon;	!	!	!	!	!	!	!	!
4G\	.	.	4a\	.	4b\	f	4dd\	.	8b\	om-	4ff\	.	4ff\	.
.	.	.	.	.	.	.	.	.	8g\	-nes	.	.	.	.
8r	.	.	8r	.	8r	.	8r	.	4r	.	8r	.	8r	.
8D\	.	.	8d\	.	16d/LL	.	16d/LL	.	.	.	8cc\	.	8cc\	.
.	.	.	.	.	16d/JJ	.	16d/JJ	.	.	.	.	.	.	.
8G\L|	.	.	8g\L	.	8g/L	.	8g/L	f	2r	.	8ff\L	.	8ff\L	.
8D\|	.	.	8d\J	.	8d/	.	8d/	.	.	.	8cc\	.	8cc\	.
!	!	!	!LO:LB:g=original	!	!	!	!	!	!	!	!	!	!	!
8G\|	.	.	8g\L	.	8g/	.	8g/	.	.	.	8ff\	.	8ff\	.
8B\J|	.	.	8b\J	.	8b/J	.	8b/J	.	.	.	8aa\J	.	8aa\J	.
!	!	!	!	!	!	!	!	!	!LO:LB:g=original	!	!	!	!	!
=55	=55	=55	=55	=55	=55	=55	=55	=55	=55	=55	=55	=55	=55	=55
4G\	.	.	4g\	.	4g/	.	4g/	.	8gg#X\L	Lau-	4ff\	.	4ff\	.
.	.	.	.	.	.	.	.	.	8ee\J	.	.	.	.	.
!	!	!	!	!	!	!LO:DY:a:t=p	!	!LO:DY:a:t=p	!	!	!	!	!	!
4r	.	.	4r	.	4r	p	4r	p	4bb\	-des	4r	.	4r	.
2G#X\	.	.	2g#X\	.	2dd\	.	2bb\	.	16bb\LL	Ap-	2r	.	2r	.
.	.	.	.	.	.	.	.	.	16aa\	.	.	.	.	.
.	.	.	.	.	.	.	.	.	16gg#\	.	.	.	.	.
.	.	.	.	.	.	.	.	.	16ff#\JJ	.	.	.	.	.
.	.	.	.	.	.	.	.	.	16ee\LL	.	.	.	.	.
.	.	.	.	.	.	.	.	.	16dd\	.	.	.	.	.
.	.	.	.	.	.	.	.	.	16cc#\	.	.	.	.	.
.	.	.	.	.	.	.	.	.	16b\JJ	.	.	.	.	.
=56	=56	=56	=56	=56	=56	=56	=56	=56	=56	=56	=56	=56	=56	=56
!	!	!	!	!	!	!	!	!	!	!	!	!	!LO:TX:a:t=P:problem=dwa skreślone takty	!
.	.	.	.	.	8qqdd/	.	.	.	.	.	.	.	.	.
4A\	.	.	4a\	.	4cc#X\	.	4ee\	.	8cc#\	-ta-	4gg\	.	4gg\	.
.	.	.	.	.	.	.	.	.	8a\	-te	.	.	.	.
8r	.	.	8r	.	8r	.	8r	.	4r	.	8r	.	8r	.
!	!	!	!	!	!	!LO:DY:a:t=f&colon;	!	!LO:DY:a:t=f&colon;	!	!	!	!	!	!
8E\	.	.	8e\	.	16e/LL	f	16e/LL	f	.	.	8dd\	.	8dd\	.
.	.	.	.	.	16e/JJ	.	16e/JJ	.	.	.	.	.	.	.
8A\L|	.	.	8a\L	.	8a/L	.	8a/L	.	2r	.	8gg\L	.	8gg\L	.
8E\|	.	.	8e\	.	8e/	.	8e/	.	.	.	8dd\	.	8dd\	.
8A\|	.	.	8a\	.	8a/	.	8a/	.	.	.	8gg\	.	8gg\	.
8c#\J|	.	.	8cc#\J	.	8cc#/J	.	8cc#/J	.	.	.	8bb\J	.	8bb\J	.
!	!	!	!	!	!	!	!LO:LB:g=original	!	!	!	!	!	!	!
=57	=57	=57	=57	=57	=57	=57	=57	=57	=57	=57	=57	=57	=57	=57
4A'\	.	.	4a\	.	4a/	.	4a/	.	8a\	huc	4gg\	.	4gg\	.
.	.	.	.	.	.	.	.	.	8cc#\	san-	.	.	.	.
!	!	!	!	!	!	!LO:DY:a:t=p	!	!	!	!	!	!	!	!
4r	.	.	4r	.	4r	p	4r	.	8ee\	-ctum	4r	.	4r	.
.	.	.	.	.	.	.	.	.	8ff#\	tre	.	.	.	.
!	!	!	!	!	!	!	!	!LO:DY:a:t=p&colon;	!	!	!	!	!	!
2C#/	.	.	2c#\	.	2g/	.	2ee\	p	16gg\LL	hoc	2r	.	2r	.
.	.	.	.	.	.	.	.	.	16ff#\JJ	.	.	.	.	.
.	.	.	.	.	.	.	.	.	16ee\LL	so-	.	.	.	.
.	.	.	.	.	.	.	.	.	16dd\JJ	.	.	.	.	.
.	.	.	.	.	.	.	.	.	16cc#\LL	-lem	.	.	.	.
.	.	.	.	.	.	.	.	.	16b\JJ	.	.	.	.	.
.	.	.	.	.	.	.	.	.	16a\LL	ni-	.	.	.	.
.	.	.	.	.	.	.	.	.	16g\JJ	.	.	.	.	.
!	!	!	!	!	!LO:LB:g=original	!	!	!	!	!	!	!	!	!
=58	=58	=58	=58	=58	=58	=58	=58	=58	=58	=58	=58	=58	=58	=58
4D\	.	.	4d\	.	4f#/	.	4a/	.	8f#/	-ta-	4cc\	.	4cc\	.
.	.	.	.	.	.	.	.	.	8d/	-le	.	.	.	.
!	!	!	!	!	!	!LO:DY:a:t=f	!	!	!	!	!	!	!	!
8r	.	.	8r	.	8r	f	8r	.	4r	.	8r	.	8r	.
!	!	!	!	!	!	!	!	!LO:DY:a:t=f&colon;	!	!	!	!	!	!
8AA/	.	.	8A/	.	16A/LL	.	16A/LL	f	.	.	8g/	.	8g/	.
.	.	.	.	.	16A/JJ	.	16A/JJ	.	.	.	.	.	.	.
8D/L|	.	.	8d\L	.	8d/L	.	8d/L	.	2r	.	8cc\L	.	8cc\L	.
8AA/|	.	.	8A\	.	8A/	.	8A/	.	.	.	8g\	.	8g\	.
8D/|	.	.	8d\	.	8d/	.	8d/	.	.	.	8cc\	.	8cc\	.
8F#/J|	.	.	8f#\J	.	8f#/J	.	8f#/J	.	.	.	8ee\J	.	8ee\J	.
=59	=59	=59	=59	=59	=59	=59	=59	=59	=59	=59	=59	=59	=59	=59
*tremolo	*	*	*	*	*	*	*	*	*	*	*	*	*	*
!	!	!	!	!	!	!LO:DY:a:t=p	!	!LO:DY:a:rj:t=p	!	!	!	!	!	!
8D\L	.	.	8d\L	.	8d/L	p	8d/L	p	4dd\	Dig-	4cc\	.	4cc\	.
8D\	.	.	8f#\	.	8f#/	.	8f#/	.	.	.	.	.	.	.
8D\	.	.	8a\	.	8a/	.	8a/	.	4ccn\	-ne	4r	.	4r	.
8D\J	.	.	8ccn\J	.	8ccn/J	.	8ccn/J	.	.	.	.	.	.	.
8F#\L	.	.	8b\L	.	8a/L	.	8a/L	.	8r	.	2r	.	2r	.
8F#\	.	.	8g\	.	8f#/	.	8f#/	.	8d/	Lau-	.	.	.	.
8F#\	.	.	8e\	.	8d/	.	8d/	.	8a\	-da-	.	.	.	.
8F#\J	.	.	8g\J	.	8f#/J	.	8f#/J	.	8cc\	-te	.	.	.	.
!	!	!	!	!	!	!	!	!	!LO:LB:g=original	!	!	!	!	!
=60	=60	=60	=60	=60	=60	=60	=60	=60	=60	=60	=60	=60	=60	=60
!	!	!	!	!	!	!	!LO:TX:t=P:problem=mixed beam	!	!	!	!	!	!	!
4G\	.	.	4.g\	.	8g\L	.	8g/L	.	4b\	Fes-	0r	.	0r	.
.	.	.	.	.	8ccn\	.	8ee\J	.	.	.	.	.	.	.
4C#\	.	.	.	.	8b\	.	8dd\L	.	8ee\	-tu-	.	.	.	.
.	.	.	8e\	.	8a\J	.	8ccn\J	.	8ee\	-os	.	.	.	.
4D\	.	.	8d\L	.	8g/L	.	8b/L	.	8dd\	so-	.	.	.	.
.	.	.	8cn\	.	8f#/	.	8a/	.	8cc#\	-nis	.	.	.	.
4DD/	.	.	8B\	.	8g/	.	8g/	.	8b\L	Dig-	.	.	.	.
.	.	.	8A\J	.	8a/J	.	8f#/J	.	8a\J	.	.	.	.	.
=61	=61	=61	=61	=61	=61	=61	=61	=61	=61	=61	=61	=61	=61	=61
*	*	*	*	*	*tremolo	*	*	*	*	*	*	*	*	*
!LO:TX:t=P:problem=mixed beam	!	!	!LO:TX:t=P:problem=mixed beam	!	!	!	!LO:TX:t=P:problem=mixed beam	!	!	!	!	!	!	!
8GG/L	.	.	8G/L	.	8b\L	.	8g/L	.	16b\LL	.	.	.	.	.
.	.	.	.	.	.	.	.	.	16a\	.	.	.	.	.
8G\	.	.	8g\	.	8b\	.	8ee\	.	16b\	.	.	.	.	.
.	.	.	.	.	.	.	.	.	16ccn\JJ	.	.	.	.	.
8G\	.	.	8g\	.	8b\	.	8ee\	.	4b\	.	.	.	.	.
!	!	!	!LO:N:vis=8	!	!	!	!	!	!	!	!	!	!	!
8G\J	.	.	16g\L	.	8b\J	.	8ee\J	.	.	.	.	.	.	.
!	!	!	!LO:N:vis=8	!	!	!	!	!	!	!	!	!	!	!
.	.	.	16g\JJ	.	.	.	.	.	.	.	.	.	.	.
.	.	.	.	.	.	.	.	.	8qqff#/	.	.	.	.	.
8G\L	.	.	8g\L	.	8b\L	.	8ee\L	.	2gg\	.	.	.	.	.
8G\	.	.	8g\	.	8b\	.	8ee\	.	.	.	.	.	.	.
8G\	.	.	8g\	.	8b\	.	8ee\	.	.	.	.	.	.	.
8G\J	.	.	8g\J	.	8b\J	.	8ee\J	.	.	.	.	.	.	.
!LO:LB:g=original	!	!	!	!	!	!	!	!	!	!	!	!	!	!
=62	=62	=62	=62	=62	=62	=62	=62	=62	=62	=62	=62	=62	=62	=62
*	*	*	*	*	*	*	*tremolo	*	*	*	*	*	*	*
8G\L	.	.	8g\L	.	8b\L	.	8ee\L	.	16b\LL	.	1r	.	1r	.
.	.	.	.	.	.	.	.	.	16g\	.	.	.	.	.
8G\	.	.	8g\	.	8b\	.	8ee\	.	16a\	.	.	.	.	.
.	.	.	.	.	.	.	.	.	16b\JJ	.	.	.	.	.
8G\	.	.	8g\	.	8b\	.	8ee\	.	16cc#\LL	.	.	.	.	.
.	.	.	.	.	.	.	.	.	16dd\	.	.	.	.	.
8G\J	.	.	8g\J	.	8b\J	.	8ee\J	.	16ee\	.	.	.	.	.
.	.	.	.	.	.	.	.	.	16ff#\JJ	.	.	.	.	.
!	!	!	!LO:LB:g=original	!	!	!	!	!	!	!	!	!	!	!
8G\L	.	.	8g#X\L	.	8b\L	.	8ee\L	.	16gg\LL	.	.	.	.	.
.	.	.	.	.	.	.	.	.	16ff#\	.	.	.	.	.
8G\	.	.	8g#\	.	8b\	.	8ee\	.	16ee\	.	.	.	.	.
.	.	.	.	.	.	.	.	.	16dd\JJ	.	.	.	.	.
8G\	.	.	8g#\	.	8b\	.	8ee\	.	16cc#\LL	.	.	.	.	.
.	.	.	.	.	.	.	.	.	16b\	.	.	.	.	.
8G\J	.	.	8g#\J	.	8b\J	.	8ee\J	.	16a\	.	.	.	.	.
.	.	.	.	.	.	.	.	.	16g\JJ	.	.	.	.	.
=63	=63	=63	=63	=63	=63	=63	=63	=63	=63	=63	=63	=63	=63	=63
*	*	*	*tremolo	*	*	*	*	*	*	*	*	*	*	*
!	!	!	!	!	!	!	!	!	!	!	!	!LO:DY:a	!	!LO:DY:a
8A\L	.	.	8a\L	.	8cc#X\L	.	8ee\L	.	8cc#X\L	.	[1g	p	1g	p
8A\	.	.	8a\	.	8cc#X\	.	8ee\	.	16a\L	.	.	.	.	.
.	.	.	.	.	.	.	.	.	16b\JJ	.	.	.	.	.
8A\	.	.	8a\	.	8cc#X\	.	8ee\	.	16cc#\LL	.	.	.	.	.
.	.	.	.	.	.	.	.	.	16dd\	.	.	.	.	.
8A\J	.	.	8a\J	.	8cc#X\J	.	8ee\J	.	16ee\	-ne	.	.	.	.
.	.	.	.	.	.	.	.	.	16ff#\JJ	.	.	.	.	.
8A\L	.	.	8a\L	.	8cc#\L	.	8ee\L	.	8gg\L	cla-	.	.	.	.
8A\	.	.	8a\	.	8cc#\	.	8ee\	.	8ee\J	.	.	.	.	.
8A\	.	.	8a\	.	8cc#\	.	8ee\	.	4cc#\	-te	.	.	.	.
8A\J	.	.	8a\J	.	8cc#\J	.	8ee\J	.	.	.	.	.	.	.
!	!	!	!	!	!	!	!	!	!LO:LB:g=original	!	!	!	!	!
=64	=64	=64	=64	=64	=64	=64	=64	=64	=64	=64	=64	=64	=64	=64
8A\L	.	.	8a\L	.	8cc#\L	.	8ee\L	.	8gg\L	me-	1g_	.	1g	.
8A\	.	.	8a\	.	8cc#\	.	8ee\	.	8ee\J	.	.	.	.	.
8A\	.	.	8a\	.	8cc#\	.	8ee\	.	8cc#\L	-cum	.	.	.	.
8A\J	.	.	8a\J	.	8cc#\J	.	8ee\J	.	8ee\J	.	.	.	.	.
8A\L	.	.	8a\L	.	8cc#\L	.	8ee\L	.	8a\L	om-	.	.	.	.
8A\	.	.	8a\	.	8cc#\	.	8ee\	.	8cc#\J	.	.	.	.	.
8A\	.	.	8a\	.	8cc#\	.	8ee\	.	8ee\L	-nes	.	.	.	.
8A\J	.	.	8a\J	.	8cc#\J	.	8ee\J	.	8gg\J	.	.	.	.	.
=65	=65	=65	=65	=65	=65	=65	=65	=65	=65	=65	=65	=65	=65	=65
8D\L	.	.	8a\L	.	8dd\L	.	8ff#\L	.	8dd\L	do-	1g_	.	1g	.
8D\	.	.	8a\	.	8dd\	.	8ff#\	.	16b\L	.	.	.	.	.
.	.	.	.	.	.	.	.	.	16cc#\JJ	.	.	.	.	.
8D\	.	.	8a\	.	8dd\	.	8ff#\	.	16dd\LL	.	.	.	.	.
.	.	.	.	.	.	.	.	.	16ee\	.	.	.	.	.
8D\J	.	.	8a\J	.	8dd\J	.	8ff#\J	.	16ff#\	.	.	.	.	.
.	.	.	.	.	.	.	.	.	16gg\JJ	.	.	.	.	.
!	!	!	!	!	!	!	!LO:LB:g=original	!	!	!	!	!	!	!
8D\L	.	.	8a\L	.	8dd\L	.	8ff#\L	.	8aa\L	.	.	.	.	.
8D\	.	.	8a\	.	8dd\	.	8ff#\	.	8ff#\J	.	.	.	.	.
8D\	.	.	8a\	.	8dd\	.	8ff#\	.	4dd\	-nos	.	.	.	.
8D\J	.	.	8a\J	.	8dd\J	.	8ff#\J	.	.	.	.	.	.	.
!	!	!	!	!	!	!	!	!	!	!	!	!	!LO:LB:g=original	!
=66	=66	=66	=66	=66	=66	=66	=66	=66	=66	=66	=66	=66	=66	=66
8F#\L	.	.	8a\L	.	8dd\L	.	8ff#\L	.	4f#/	Ap-	1g_	.	1g	.
8F#\	.	.	8a\	.	8dd\	.	8ff#\	.	.	.	.	.	.	.
8F#\	.	.	8a\	.	8dd\	.	8ff#\	.	4aa\	-ta-	.	.	.	.
8F#\J	.	.	8a\J	.	8dd\J	.	8ff#\J	.	.	.	.	.	.	.
*	*	*	*	*	*Xtremolo	*	*	*	*	*	*	*	*	*
8F#\L	.	.	8a\L	.	8dd\L	.	8ff#\L	.	16aa\LL	.	.	.	.	.
.	.	.	.	.	.	.	.	.	16gg\	.	.	.	.	.
8F#\	.	.	8a\	.	8dd\	.	8ff#\	.	16ff#\	.	.	.	.	.
.	.	.	.	.	.	.	.	.	16ee\JJ	.	.	.	.	.
8F#\	.	.	8a\	.	8dd#X\	.	8ff#\	.	16dd\LL	.	.	.	.	.
.	.	.	.	.	.	.	.	.	16ccn\	.	.	.	.	.
8F#\J	.	.	8a\J	.	8dd#\J	.	8ff#\J	.	16b\	.	.	.	.	.
.	.	.	.	.	.	.	.	.	16cc\JJ	.	.	.	.	.
=67	=67	=67	=67	=67	=67	=67	=67	=67	=67	=67	=67	=67	=67	=67
*	*	*	*	*	*tremolo	*	*	*	*	*	*	*	*	*
8G\L	.	.	8a\L	.	8ee\L	.	8gg\L	.	4b\	.	1g_	.	1g	.
8G\	.	.	8a\	.	8ee\	.	8gg\	.	.	.	.	.	.	.
8G\	.	.	8a\	.	8ee\	.	8gg\	.	4bb\	.	.	.	.	.
8G\J	.	.	8a\J	.	8ee\J	.	8gg\J	.	.	.	.	.	.	.
!	!	!	!	!	!LO:LB:g=original	!	!	!	!	!	!	!	!	!
8G\L	.	.	8a\L	.	8ee\L	.	8gg\L	.	16bb\LL	.	.	.	.	.
.	.	.	.	.	.	.	.	.	16aa\	.	.	.	.	.
8G\	.	.	8a\	.	8ee\	.	8gg\	.	16gg\	.	.	.	.	.
.	.	.	.	.	.	.	.	.	16ff#\JJ	.	.	.	.	.
8G\	.	.	8a\	.	8ee\	.	8gg\	.	4ee\	.	.	.	.	.
8G\J	.	.	8a\J	.	8ee\J	.	8gg\J	.	.	.	.	.	.	.
*	*	*	*	*	*Xtremolo	*	*	*	*	*	*	*	*	*
=68	=68	=68	=68	=68	=68	=68	=68	=68	=68	=68	=68	=68	=68	=68
*	*	*	*	*	*^	*	*	*	*	*	*	*	*	*
.	.	.	.	.	.	.	.	.	.	8qqdd/	.	.	.	.	.
8A\L	.	.	8a\L	.	8ee/L	8ee\L	.	8gg\L	.	4cc#\	.	(1g]	.	1g	.
8A\	.	.	8a\	.	8ee/	8cc#\	.	8gg\	.	.	.	.	.	.	.
8A\	.	.	8a\	.	8ee/	8cc#\	.	8gg\	.	4gg\	.	.	.	.	.
8A\J	.	.	8a\J	.	8ee/J	8cc#\J	.	8gg\J	.	.	.	.	.	.	.
8C#/L	.	.	8a\L	.	8ee/L	8cc#\L	.	8gg\L	.	16gg\LL	.	.	.	.	.
.	.	.	.	.	.	.	.	.	.	16ff#\	.	.	.	.	.
8C#/	.	.	8a\	.	8ee/	8cc#\	.	8gg\	.	16ee\	.	.	.	.	.
.	.	.	.	.	.	.	.	.	.	16dd\JJ	.	.	.	.	.
.	.	.	.	.	.	.	.	.	.	8qqdd/	.	.	.	.	.
8C#/	.	.	8a\	.	8ee/	8cc#\	.	8gg\	.	4cc#\	.	.	.	.	.
8C#/J	.	.	8a\J	.	8ee/J	8cc#\J	.	8gg\J	.	.	.	.	.	.	.
*Xtremolo	*	*	*Xtremolo	*	*	*	*	*Xtremolo	*	*	*	*	*	*	*
*	*	*	*	*	*v	*v	*	*	*	*	*	*	*	*	*
!	!	!	!	!	!	!	!	!	!LO:LB:g=original	!	!	!	!	!
=69	=69	=69	=69	=69	=69	=69	=69	=69	=69	=69	=69	=69	=69	=69
8D\L	.	.	8b\L	.	8dd\L	.	8ff#\L	.	8.ff#\L	-te	4c/)	.	4cc\	.
8D\	.	.	8b\	.	8ff#\	.	8aa\	.	.	.	.	.	.	.
.	.	.	.	.	.	.	.	.	32ee\LL	.	.	.	.	.
.	.	.	.	.	.	.	.	.	32dd\JJJ	.	.	.	.	.
8F#\	.	.	8b\	.	8ff#\	.	8aa\	.	8.ff#\L	me-	4r	.	4r	.
8F#\J	.	.	8b\J	.	8ff#\J	.	8aa\J	.	.	.	.	.	.	.
.	.	.	.	.	.	.	.	.	32gg\LL	.	.	.	.	.
.	.	.	.	.	.	.	.	.	32aa\JJJ	.	.	.	.	.
*	*	*	*	*	*tremolo	*	*	*	*	*	*	*	*	*
!LO:TX:t=P:problem=mixed beam	!	!	!	!	!	!	!LO:TX:t=P:problem=mixed beam	!	!	!	!	!	!	!
8E\L	.	.	8cc#\L	.	8ee\L	.	8aa\L	.	8.ee\L	-cum	2r	.	2r	.
8E\	.	.	8cc#\	.	8ee\	.	8a/	.	.	.	.	.	.	.
.	.	.	.	.	.	.	.	.	32dd\LL	.	.	.	.	.
.	.	.	.	.	.	.	.	.	32cc#\JJJ	.	.	.	.	.
8AA/	.	.	8cc#\	.	8ee\	.	8a/	.	8.ee\L	om-	.	.	.	.
8AA/J	.	.	8cc#\J	.	8ee\J	.	8a/J	.	.	.	.	.	.	.
.	.	.	.	.	.	.	.	.	32ff#\LL	.	.	.	.	.
.	.	.	.	.	.	.	.	.	32gg\JJJ	.	.	.	.	.
!	!	!	!	!	!	!	!	!	!	!	!LO:LB:g=original	!	!	!
=70	=70	=70	=70	=70	=70	=70	=70	=70	=70	=70	=70	=70	=70	=70
*tremolo	*	*	*	*	*	*	*	*	*	*	*	*	*	*
8D\L	.	.	8b\L	.	8dd\L	.	8b\L	.	8a\	-nes	00r	.	00r	.
8D\	.	.	8b\	.	8dd\	.	8dd\	.	4dd\	Ap-	.	.	.	.
8D\	.	.	8b\	.	8dd\	.	8dd\	.	.	.	.	.	.	.
8D\J	.	.	8b\J	.	8dd\J	.	8ff#\J	.	4ff#\	-ta-	.	.	.	.
8F#\L	-n5	.	8a\L	.	8dd\L	.	8ff#\L	.	.	.	.	.	.	.
8F#\	.	.	8a\	.	8dd\	.	8ff#\	.	4aa\	.	.	.	.	.
8F#\	.	.	8a\	.	8dd\	.	8ff#\	.	.	.	.	.	.	.
8F#\J	.	.	8a\J	.	8dd\J	.	8ff#\J	.	8ccn\	.	.	.	.	.
=71	=71	=71	=71	=71	=71	=71	=71	=71	=71	=71	=71	=71	=71	=71
*	*	*	*	*	*	*	*tremolo	*	*	*	*	*	*	*
8G\L	.	.	8g\L	.	8dd\L	.	8bb\L	.	4b\	-te	.	.	.	.
8G\	.	.	8g\	.	8dd\	.	8bb\	.	.	.	.	.	.	.
8G\	.	.	8g\	.	8dd\	.	8bb\	.	8bb\L	me-	.	.	.	.
8G\J	.	.	8g\J	.	8dd\J	.	8bb\J	.	16aa\L	.	.	.	.	.
.	.	.	.	.	.	.	.	.	16gg\JJ	.	.	.	.	.
8F#\L	.	.	8f#\L	.	8dd\L	.	8aa\L	.	4a\	-cum	.	.	.	.
8F#\	.	.	8f#\	.	8dd\	.	8aa\	.	.	.	.	.	.	.
8F#\	.	.	8f#\	.	8dd\	.	8aa\	.	8aa\L	Ap-	.	.	.	.
8F#\J	.	.	8f#\J	.	8dd\J	.	8aa\J	.	16gg\L	.	.	.	.	.
.	.	.	.	.	.	.	.	.	16ff#\JJ	.	.	.	.	.
*Xtremolo	*	*	*	*	*	*	*	*	*	*	*	*	*	*
=72	=72	=72	=72	=72	=72	=72	=72	=72	=72	=72	=72	=72	=72	=72
*	*	*	*tremolo	*	*	*	*	*	*	*	*	*	*	*
8E\L	.	.	8eL	.	8dd\L	.	8gg\L	.	16gg\LL	.	.	.	.	.
.	.	.	.	.	.	.	.	.	16ff#\J	.	.	.	.	.
8E\	.	.	8e	.	8dd\	.	8gg\	.	8ee\J	.	.	.	.	.
8D\	.	.	8e	.	8dd\	.	8gg\	.	16ff#\LL	.	.	.	.	.
.	.	.	.	.	.	.	.	.	16ee\J	.	.	.	.	.
8D\J	.	.	8e	.	8dd\J	.	8gg\J	.	8dd\J	.	.	.	.	.
8C#/L	.	.	8e	.	8cc#\L	.	8gg\L	.	16dd\LL	.	.	.	.	.
.	.	.	.	.	.	.	.	.	16cc#\J	.	.	.	.	.
8C#/	.	.	8eJ	.	8cc#\	.	8gg\	.	8b\J	.	.	.	.	.
8AA/	.	.	4ryy	.	8cc#\	.	8gg\	.	16ee\LL	.	.	.	.	.
.	.	.	.	.	.	.	.	.	16ff#\J	.	.	.	.	.
8AA/J	.	.	.	.	8cc#\J	.	8gg\J	.	8gg\J	.	.	.	.	.
*	*	*	*Xtremolo	*	*	*	*	*	*	*	*	*	*	*
!	!	!	!	!	!	!	!	!	!LO:LB:g=original	!	!	!	!	!
=73	=73	=73	=73	=73	=73	=73	=73	=73	=73	=73	=73	=73	=73	=73
!	!	!	!	!	!	!	!	!LO:DY:a:t=f&colon;	!	!	!	!	!	!
8D\L	.	.	16d\LL	.	16dd\LL	.	16ff#\LL	f	8.ff#\L	.	.	.	.	.
.	.	.	16d\	.	16dd\	.	16ff#\	.	.	.	.	.	.	.
8D\	.	.	16d\	.	16dd\	.	16ff#\	.	.	.	.	.	.	.
.	.	.	16d\JJ	.	16dd\JJ	.	16ff#\JJ	.	32ee\LL	.	.	.	.	.
.	.	.	.	.	.	.	.	.	32ff#\JJJ	.	.	.	.	.
8E\	.	.	16e\LL	.	16dd\LL	.	16gg\LL	.	8.gg\L	.	.	.	.	.
.	.	.	16e\	.	16dd\	.	16gg\	.	.	.	.	.	.	.
8E\J	.	.	16e\	.	16dd\	.	16gg\	.	.	.	.	.	.	.
.	.	.	16e\JJ	.	16dd\JJ	.	16gg\JJ	.	32ff#\LL	.	.	.	.	.
.	.	.	.	.	.	.	.	.	32gg\JJJ	.	.	.	.	.
!	!	!	!LO:LB:g=original	!	!	!	!	!	!	!	!	!	!	!
8F#\L	.	.	16f#\LL	.	16dd\LL	.	16aa\LL	.	8.aa\L	.	.	.	.	.
.	.	.	16f#\	.	16dd\	.	16aa\	.	.	.	.	.	.	.
8F#\	.	.	16f#\	.	16dd\	.	16aa\	.	.	.	.	.	.	.
.	.	.	16f#\JJ	.	16dd\JJ	.	16aa\JJ	.	32gg\LL	.	.	.	.	.
.	.	.	.	.	.	.	.	.	32aa\JJJ	.	.	.	.	.
8G\	.	.	16g\LL	.	16dd\LL	.	16bb\LL	.	8bb\L	.	.	.	.	.
.	.	.	16g\	.	16dd\	.	16bb\	.	.	.	.	.	.	.
8G\J	.	.	16g\	.	16dd\	.	16bb\	.	8gg\J	.	.	.	.	.
.	.	.	16g\JJ	.	16dd\JJ	.	16bb\JJ	.	.	.	.	.	.	.
=74	=74	=74	=74	=74	=74	=74	=74	=74	=74	=74	=74	=74	=74	=74
*tremolo	*	*	*tremolo	*	*	*	*	*	*	*	*	*	*	*
!	!	!	!	!	!	!	!	!LO:DY:a:t=p	!	!	!	!	!	!
8A\L	.	.	8a\L	.	16dd\LL	.	16a\LL	p	8.ff#\L	.	1r	.	1r	.
.	.	.	.	.	16dd\	.	16ff#\	.	.	.	.	.	.	.
8A\	.	.	8a\	.	16dd\	.	16ff#\	.	.	.	.	.	.	.
.	.	.	.	.	16dd\JJ	.	16ff#\JJ	.	16aa\Jk	.	.	.	.	.
8A\	.	.	8a\	.	16dd\LL	.	16ff#\LL	.	16gg\LL	.	.	.	.	.
.	.	.	.	.	16dd\	.	16ff#\	.	16ff#\	.	.	.	.	.
8A\J	.	.	8a\J	.	16dd\	.	16ff#\	.	16ee\	.	.	.	.	.
.	.	.	.	.	16dd\JJ	.	16ff#\JJ	.	16dd\JJ	.	.	.	.	.
8AA/L	.	.	8a\L	.	16dd\LL	.	16ee\LL	.	4a\	.	.	.	.	.
.	.	.	.	.	16dd\	.	16ee\	.	.	.	.	.	.	.
8AA/	.	.	8a\	.	16dd\	.	16ee\	.	.	.	.	.	.	.
.	.	.	.	.	16dd\JJ	.	16ee\JJ	.	.	.	.	.	.	.
8AA/	.	.	8a\	.	16cc#\LL	.	16ee\LL	.	4ee\	-ta-	.	.	.	.
.	.	.	.	.	16cc#\	.	16ee\	.	.	.	.	.	.	.
8AA/J	.	.	8a\J	.	16cc#\	.	16ee\	.	.	.	.	.	.	.
.	.	.	.	.	16cc#\JJ	.	16ee\JJ	.	.	.	.	.	.	.
*Xtremolo	*	*	*Xtremolo	*	*Xtremolo	*	*Xtremolo	*	*	*	*	*	*	*
!	!	!	!	!	!	!	!LO:LB:g=original	!	!	!	!	!	!	!
=75	=75	=75	=75	=75	=75	=75	=75	=75	=75	=75	=75	=75	=75	=75
!	!	!	!	!	!	!LO:DY:a:rj:t=f	!	!	!	!	!	!	!	!
4D\	.	.	8a\L	.	8dd\L	f	16ff#\LL	.	4dd\	-te	2r	.	2r	.
.	.	.	.	.	.	.	16dd\	.	.	.	.	.	.	.
.	.	.	8g\	.	16ee\L	.	16ee\	.	.	.	.	.	.	.
.	.	.	.	.	16ff#\JJ	.	16ff#\JJ	.	.	.	.	.	.	.
4r	.	.	8f#\	.	16gg\LL	.	16gg\LL	.	4r	.	.	.	.	.
.	.	.	.	.	16aa\	.	16aa\	.	.	.	.	.	.	.
.	.	.	8e\J	.	16bb\	.	16bb\	.	.	.	.	.	.	.
.	.	.	.	.	16ccc#\JJ	.	16ccc#\JJ	.	.	.	.	.	.	.
!	!	!	!	!	!	!	!	!	!	!	!	!	!	!LO:DY:a
4D\	.	.	8d\L	.	8ddd\L	.	8ddd\L	.	2r	.	4ee\	.	4ee\	p
.	.	.	8d\	.	8ddd\	.	8ddd\	.	.	.	.	.	.	.
8E\L	.	.	8e\	.	8ddd\	.	8ddd\	.	.	.	4r	.	8r	.
8F#\J	.	.	8f#\J	.	8ddd\J	.	8ddd\J	.	.	.	.	.	8aa\	.
!LO:LB:g=original	!	!	!	!	!LO:LB:g=original	!	!	!	!	!	!	!	!	!
=76	=76	=76	=76	=76	=76	=76	=76	=76	=76	=76	=76	=76	=76	=76
!	!	!	!	!	!	!LO:DY:a:rj:t=p	!	!	!	!	!	!	!	!
4E\	.	.	4e\	.	4gg#X\	p	4gg#X\	.	4gg#X\	Con	4dd\	.	4aa\	.
.	.	.	.	.	8qqbb/	.	8qqbb/	.	.	.	.	.	.	.
8e\L	.	.	8dd\L	.	16aa\LL	.	16aa\LL	.	8aa\	Ju-	4r	.	4r	.
.	.	.	.	.	16gg#\	.	16gg#\	.	.	.	.	.	.	.
8d\J	.	.	8cc#\J	.	16aa\	.	16aa\	.	8aa\	-bi-	.	.	.	.
.	.	.	.	.	16bb\JJ	.	16bb\JJ	.	.	.	.	.	.	.
4cn\	.	.	8ccn\L	.	8cccn\L	.	8cccn\L	.	4aa\	-la-	4r	.	4r	.
.	.	.	8cc\	.	8ccc\	.	8ccc\	.	.	.	.	.	.	.
4r	.	.	8dd\	.	8ccc\	.	8ccc\	.	4r	.	4dd\	.	8r	.
.	.	.	8ee\J	.	8ccc\J	.	8ccc\J	.	.	.	.	.	8gg\	.
=77	=77	=77	=77	=77	=77	=77	=77	=77	=77	=77	=77	=77	=77	=77
4A\	.	.	4a\	.	4ff#\	.	4ff#\	.	4ff#\	-te	4cc\	.	4gg\	.
.	.	.	.	.	8qqaa/	.	8qqaa/	.	.	.	.	.	.	.
8d\L	.	.	8dd\L	.	16gg\LL	.	16ggn\LL	.	8ggn\	in	4r	.	4r	.
.	.	.	.	.	16ff#\	.	16ff#\	.	.	.	.	.	.	.
!LO:SIC:v:s=cn	!	!	!	!	!	!	!	!	!	!	!	!	!	!
8c#\J	.	.	8ccn\J	.	16gg\	.	16gg\	.	8gg\	hoe-	.	.	.	.
.	.	.	.	.	16aa\JJ	.	16aa\JJ	.	.	.	.	.	.	.
4B-X\	.	.	8b-X\L	.	8bb-X\L	.	8bb-X\L	.	4.bb-X\	-lii	4cc\	.	2r	.
.	.	.	8b-\	.	8bb-\	.	8bb-\	.	.	.	.	.	.	.
4G#X\	.	.	8g\	.	8bb-\	.	8bb-\	.	.	.	4r	.	.	.
.	.	.	8b-\J	.	8bb-\J	.	8bb-\J	.	8dd\	sa-	.	.	.	.
=78	=78	=78	=78	=78	=78	=78	=78	=78	=78	=78	=78	=78	=78	=78
.	.	.	.	.	.	.	8qqdd/	.	.	.	.	.	.	.
!	!	!	!	!	!	!	!	!LO:DY:t=f	!	!	!	!	!	!
4A\	.	.	4e\	.	4.cc#X\	.	4.cc#X\	f	8cc#X\	-lu-	4g/	.	4dd\	.
.	.	.	.	.	.	.	.	.	8b\	-ro-	.	.	.	.
8r	.	.	4r	.	.	.	.	.	4a\	-ni	4r	.	4r	.
8E\	.	.	.	.	16e/LL	.	16e/LL	.	.	.	.	.	.	.
.	.	.	.	.	16e/JJ	.	16e/JJ	.	.	.	.	.	.	.
!	!	!	!	!	!	!LO:DY:a	!	!	!	!	!	!	!	!
8A\L	.	.	2r	.	8a/L	f	8a/L	.	2r	.	2r	.	2r	.
8E\	.	.	.	.	8e/	.	8e/	.	.	.	.	.	.	.
8A\	.	.	.	.	8a/	.	8a/	.	.	.	.	.	.	.
8c#\J	.	.	.	.	8cc#/J	.	8cc#/J	.	.	.	.	.	.	.
!	!	!	!	!	!	!	!	!	!LO:LB:g=original	!	!	!	!	!
=79	=79	=79	=79	=79	=79	=79	=79	=79	=79	=79	=79	=79	=79	=79
2A\	.	.	1c#	.	4a/	.	4a/	.	4a\	huc	1g	.	1g	.
.	.	.	.	.	4r	.	4r	.	8dd\L	San-	.	.	.	.
.	.	.	.	.	.	.	.	.	8ff#\J	.	.	.	.	.
!	!	!	!	!	!	!LO:DY:a:t=p&colon;	!	!LO:DY:a	!	!	!	!	!	!
2AA/	.	.	.	.	2g/	p	2ee\	p	8gg\L	-ctum	.	.	.	.
.	.	.	.	.	.	.	.	.	8ee\J	.	.	.	.	.
.	.	.	.	.	.	.	.	.	8bb\L	a-	.	.	.	.
.	.	.	.	.	.	.	.	.	8gg\J	-sa	.	.	.	.
=80	=80	=80	=80	=80	=80	=80	=80	=80	=80	=80	=80	=80	=80	=80
!	!	!	!	!	!LO:TX:t=P:problem=mixed beam	!	!LO:TX:t=P:problem=mixed beam	!	!	!	!	!	!	!
8D\L	.	.	8d\L	.	8f#/L	.	8f#/L	.	8ff#\	ce-	4g/	.	4g/	.
8D\	.	.	8f#\	.	8dd\	.	8dd\	.	8dd\	-lu-	.	.	.	.
8G\	.	.	8g\	.	8b\	.	8b\	.	8b\	-te	4r	.	4r	.
8G\J	.	.	8e\J	.	8gg\J	.	8gg\J	.	8gg\	me	.	.	.	.
4A\	.	.	8a\L	.	8ff#\L	.	8ff#\L	.	4ff#\	Cum	2r	.	2r	.
.	.	.	8g\	.	8ee\	.	8ee\	.	.	.	.	.	.	.
4AA/	.	.	8f#\	.	8dd\	.	8dd\	.	4ee\	Om-	.	.	.	.
.	.	.	8g\J	.	8cc#\J	.	8cc#\J	.	.	.	.	.	.	.
=81	=81	=81	=81	=81	=81	=81	=81	=81	=81	=81	=81	=81	=81	=81
4D\	.	.	8f#\L	.	16dd\LL	.	16dd\LL	.	4dd\	-nes	1r	.	1r	.
.	.	.	.	.	(16ddd\	.	16ddd\	.	.	.	.	.	.	.
.	.	.	8f#\	.	16ccc#\	.	16ccc#\	.	.	.	.	.	.	.
.	.	.	.	.	16ddd\JJ)	.	16ddd\JJ	.	.	.	.	.	.	.
4G\	.	.	8g\	.	4bb\	.	4bb\	.	4r	.	.	.	.	.
.	.	.	8g\J	.	.	.	.	.	.	.	.	.	.	.
4A\	.	.	8f#\L	.	8aa\L	.	8aa\L	.	8aa\L	Cum	.	.	.	.
.	.	.	8e\	.	8gg\	.	8gg\	.	8gg\J	.	.	.	.	.
4AA/	.	.	8d\	.	8ff#\	.	8ff#\	.	8ff#\L	Om-	.	.	.	.
.	.	.	8c#\J	.	8ee\J	.	8ee\J	.	8ee\J	.	.	.	.	.
!	!	!	!LO:LB:g=original	!	!	!	!LO:LB:g=original	!	!	!	!	!	!	!
=82	=82	=82	=82	=82	=82	=82	=82	=82	=82	=82	=82	=82	=82	=82
8D\L	.	.	8d\L	.	16dd\LL	.	16dd\LL	.	4dd\	-nes	4r	.	4r	.
.	.	.	.	.	16ddd\	.	16ddd\	.	.	.	.	.	.	.
8D\	.	.	8e\J	.	16ccc#\	.	16ccc#\	.	.	.	.	.	.	.
.	.	.	.	.	16ddd\JJ	.	16ddd\JJ	.	.	.	.	.	.	.
8G\	.	.	4g\	.	8bb\L	.	4bb\	.	4r	.	4ff\	.	4aa\	.
8G\J	.	.	.	.	8gg\J	.	.	.	.	.	.	.	.	.
4A\	.	.	8a\L	.	8ff#\L	.	8aa\L	.	8aa\L	Cum	8ee\L	.	8gg\L	.
.	.	.	8a\	.	8ee\	.	8gg\	.	8gg\J	.	8dd\	.	8ff\	.
4AA/	.	.	8a\	.	8dd\	.	8ff#\	.	8ff#\L	Om-	8cc\	.	8ee\	.
.	.	.	8a\J	.	8cc#\J	.	8ee\J	.	8ee\J	.	8b\J	.	8dd\J	.
=83	=83	=83	=83	=83	=83	=83	=83	=83	=83	=83	=83	=83	=83	=83
!	!	!	!	!	!	!	!	!LO:DY:a:t=f&colon;	!	!	!	!	!	!
4D\	.	.	8a\L	.	8dd\L	.	16ff#\LL	f	4dd\	-nes	4cc\	.	4cc\	.
.	.	.	.	.	.	.	16dd\	.	.	.	.	.	.	.
.	.	.	8g\	.	16ee\L	.	16ee\	.	.	.	.	.	.	.
.	.	.	.	.	16ff#\JJ	.	16ff#\JJ	.	.	.	.	.	.	.
4r	.	.	8f#\	.	16gg\LL	.	16gg\LL	.	4r	.	4r	.	4r	.
.	.	.	.	.	16aa\	.	16aa\	.	.	.	.	.	.	.
.	.	.	8e\J	.	16bb\	.	16bb\	.	.	.	.	.	.	.
.	.	.	.	.	16ccc#\JJ	.	16ccc#\JJ	.	.	.	.	.	.	.
.	.	.	.	.	.	.	8qqccc#/	.	.	.	.	.	.	.
!	!	!	!	!	!LO:LB:g=original	!	!	!	!	!	!	!	!	!
4D\	.	.	8d\L	.	8ddd\L	.	8ddd\L	.	2r	.	4ee\	.	4aa\	.
.	.	.	8d\	.	8ddd\	.	8ddd\	.	.	.	.	.	.	.
8E\L	.	.	8e\	.	8ddd\	.	8ddd\	.	.	.	8r	.	8r	.
8F#\J	.	.	8f#\J	.	8ddd\J	.	8ddd\J	.	.	.	8ee\	.	8aa\	.
=84	=84	=84	=84	=84	=84	=84	=84	=84	=84	=84	=84	=84	=84	=84
!	!	!	!	!	!	!	!	!	!LO:TX:a:t=7	!	!	!	!	!
4E\	.	.	8e\L	.	4gg#X\	.	4gg#X\	.	00r	.	4dd\	.	4aa\	.
.	.	.	8b\	.	.	.	.	.	.	.	.	.	.	.
.	.	.	.	.	8qqbb/	.	8qqbb/	.	.	.	.	.	.	.
8e\L|	.	.	8ee\	.	16aa\LL	.	16aa\LL	.	.	.	8.dd\L	.	8.dd\L	.
.	.	.	.	.	16gg#\	.	16gg#\	.	.	.	.	.	.	.
8d\J|	.	.	8dd\J	.	16aa\	.	16aa\	.	.	.	.	.	.	.
.	.	.	.	.	16bb\JJ	.	16bb\JJ	.	.	.	16dd\Jk	.	16dd\Jk	.
!	!	!	!	!	!LO:SIC:v:s=8cccn	!	!	!	!	!	!	!	!	!
4cn\|	.	.	8ccn\L	.	8ccc-\L	.	8cccn\L	.	.	.	4dd\	.	4dd\	.
!	!	!	!	!	!LO:SIC:v:s=8ccc	!	!	!	!	!	!	!	!	!
.	.	.	8dd\	.	8ccc-\	.	8ccc\	.	.	.	.	.	.	.
!	!	!	!	!	!LO:SIC:v:s=8ccc	!	!	!	!	!	!	!	!	!
4r	.	.	8ee\	.	8ccc-\	.	8ccc\	.	.	.	8r	.	8r	.
!	!	!	!	!	!LO:SIC:v:s=8ccc	!	!	!	!	!	!	!	!	!
.	.	.	8ff#\J	.	8ccc-\J	.	8ccc\J	.	.	.	8dd\	.	8gg\	.
!	!	!	!	!	!	!	!	!	!	!	!	!	!LO:LB:g=original	!
=85	=85	=85	=85	=85	=85	=85	=85	=85	=85	=85	=85	=85	=85	=85
4D\	.	.	8a\L	.	4ff#\	.	4ff#\	.	.	.	2cc\	.	4gg\	.
.	.	.	8a\	.	.	.	.	.	.	.	.	.	.	.
.	.	.	.	.	8qqaa/	.	8qqaa/	.	.	.	.	.	.	.
8d\L|	.	.	8dd\	.	16ggn\LL	.	16ggn\LL	.	.	.	.	.	8.cc\L	.
.	.	.	.	.	16ff#\	.	16ff#\	.	.	.	.	.	.	.
!LO:SIC:v:s=cn	!	!	!	!	!	!	!	!	!	!	!	!	!	!
8c#\J|	.	.	8ccn\J	.	16gg\	.	16gg\	.	.	.	.	.	.	.
.	.	.	.	.	16aa\JJ	.	16aa\JJ	.	.	.	.	.	16cc\Jk	.
4B-X\|	.	.	8b-X\L	.	8bb-X\L	.	8bb-X\L	.	.	.	4cc\	.	4cc\	.
.	.	.	8d\	.	8bb-\	.	8bb-\	.	.	.	.	.	.	.
4r	.	.	8g\	.	8bb-\	.	8bb-\	.	.	.	4r	.	4r	.
.	.	.	8b-X\J	.	8bb-\J	.	8bb-\J	.	.	.	.	.	.	.
=86	=86	=86	=86	=86	=86	=86	=86	=86	=86	=86	=86	=86	=86	=86
4A\	.	.	8e\L	.	4cc#X\	.	4cc#X\	.	.	.	4g/	.	[4gg\	.
.	.	.	8e\	.	.	.	.	.	.	.	.	.	.	.
4G\	.	.	8f#X\	.	8a\L	.	8dd\L	.	.	.	8g/	.	8gg\]	.
.	.	.	8g\J	.	8cc#\J	.	8ee\J	.	.	.	8r	.	8r	.
4F#\	.	.	8a\L	.	8.ddT\L	.	8.ff#t\L	.	.	.	2r	.	2r	.
.	.	.	8bn\	.	.	.	.	.	.	.	.	.	.	.
.	.	.	.	.	(32cc#\LL	.	32ee\LL	.	.	.	.	.	.	.
.	.	.	.	.	32dd\JJJ)	.	32ff#\JJJ	.	.	.	.	.	.	.
8E\L	.	.	8b\	.	8ee\L	.	8gg\L	.	.	.	.	.	.	.
8D\J	.	.	8b\J	.	8dd\J	.	8ff#\J	.	.	.	.	.	.	.
!	!	!	!	!	!	!	!	!	!	!	!LO:LB:g=original	!	!	!
=87	=87	=87	=87	=87	=87	=87	=87	=87	=87	=87	=87	=87	=87	=87
!LO:TX:t=P:problem=mixed beam	!	!	!	!	!	!	!	!	!	!	!	!	!	!
8A\L	.	.	4a\	.	8dd\L	.	8ff#\L	.	.	.	4r	.	4r	.
8AA/J	.	.	.	.	8cc#\J	.	8ee\J	.	.	.	.	.	.	.
8r	.	.	8r	.	8r	.	8r	.	.	.	8r	.	8r	.
8AA/	.	.	8A/	.	16A/LL	.	16A/LL	.	.	.	8g/	.	8g/	.
.	.	.	.	.	16A/JJ	.	16A/JJ	.	.	.	.	.	.	.
!LO:LB:g=original	!	!	!	!	!	!	!	!	!	!	!	!	!	!
8D/L	.	.	8d/L	.	8d/L	.	8d/L	.	.	.	8cc\L	.	8cc\L	.
8AA/	.	.	8A/	.	8A/	.	8A/	.	.	.	8g\	.	8g\	.
8D/	.	.	8d/	.	8d/	.	8d/	.	.	.	8cc\	.	8cc\	.
8F#/J	.	.	8f#/J	.	8f#/J	.	8f#/J	.	.	.	8ee\J	.	8ee\J	.
!	!	!	!	!	!	!	!LO:LB:g=original	!	!	!	!	!	!	!
=88	=88	=88	=88	=88	=88	=88	=88	=88	=88	=88	=88	=88	=88	=88
4D/	.	.	4d\	.	4d/	.	4d/	.	0r	.	4dd\	.	4cc\	.
8r	.	.	8r	.	8r	.	8r	.	.	.	8r	.	8r	.
8AA/	.	.	8A/	.	16A/LL	.	16A/LL	.	.	.	8g/	.	8g/	.
.	.	.	.	.	16A/JJ	.	16A/JJ	.	.	.	.	.	.	.
8D/L	.	.	8d\L	.	8d/L	.	8d/L	.	.	.	8cc\L	.	8cc\L	.
8AA/	.	.	8A\	.	8A/	.	8A/	.	.	.	8g\	.	8g\	.
8D/	.	.	8d\	.	8d/	.	8d/	.	.	.	8cc\	.	8cc\	.
8F#/J	.	.	8f#\J	.	8f#/J	.	8f#/J	.	.	.	8ee\J	.	8ee\J	.
!	!	!	!LO:LB:g=original	!	!	!	!	!	!	!	!	!	!	!
=89	=89	=89	=89	=89	=89	=89	=89	=89	=89	=89	=89	=89	=89	=89
8D\L	.	.	8d\L	.	8d/L	.	8d/L	.	.	.	8cc\L	.	8cc\L	.
8A\	.	.	8a\	.	8a/	.	8a/	.	.	.	8gg\	.	8gg\	.
8F#\	.	.	8f#\	.	8f#/	.	8f#/	.	.	.	8ee\	.	8ee\	.
8d\J	.	.	8dd\J	.	8dd/J	.	8dd/J	.	.	.	8ccc\J	.	8ccc\J	.
4A\	.	.	4a\	.	4a/	.	4a/	.	.	.	4gg\	.	4gg\	.
4AA/	.	.	4A/	.	4A/	.	4A/	.	.	.	4g/	.	4g/	.
=90	=90	=90	=90	=90	=90	=90	=90	=90	=90	=90	=90	=90	=90	=90
4D\	.	.	4d;\	.	4d/	.	4d;/	.	1r	.	4c;;/	.	4cc;\	.
4r;	.	.	8r	.	4r	.	4r	.	.	.	4r	.	4r	.
.	.	.	8g\	.	.	.	.	.	.	.	.	.	.	.
2rC	.	.	8f#\L	.	2r;;	.	2r	.	.	.	2r	.	2r;<	.
.	.	.	8b\	.	.	.	.	.	.	.	.	.	.	.
.	.	.	8a\	.	.	.	.	.	.	.	.	.	.	.
.	.	.	8g\J	.	.	.	.	.	.	.	.	.	.	.
!	!	!	!	!	!LO:LB:g=original	!	!	!	!	!	!	!	!	!
=91||	=91||	=91||	=91||;;	=91||	=91||	=91||	=91||	=91||	=91||	=91||	=91||	=91||	=91||	=91||
*tremolo	*	*	*	*	*	*	*	*	*	*	*	*	*	*
!	!	!	!	!	!	!LO:DY:a:t=p	!	!LO:DY:a	!	!	!	!	!	!
8D\L	.	.	4f#\	.	2d/	p	2d/	p	2dd\	haſt	0r	.	0r	.
8D\	.	.	.	.	.	.	.	.	.	.	.	.	.	.
8D\	.	.	8r	.	.	.	.	.	.	.	.	.	.	.
8D\J	.	.	8f#\	.	.	.	.	.	.	.	.	.	.	.
8C#\L	.	.	8e\L	.	2a/	.	2a/	.	2a\	vibi-	.	.	.	.
8C#\	.	.	8d\	.	.	.	.	.	.	.	.	.	.	.
8C#\	.	.	8e\	.	.	.	.	.	.	.	.	.	.	.
8C#\J	.	.	8c#\J	.	.	.	.	.	.	.	.	.	.	.
*Xtremolo	*	*	*	*	*	*	*	*	*	*	*	*	*	*
!	!	!	!	!	!	!	!	!	!LO:LB:g=original	!	!	!	!	!
=92	=92	=92	=92	=92	=92	=92	=92	=92	=92	=92	=92	=92	=92	=92
!LO:TX:t=P:problem=mixed beam	!	!	!	!	!	!	!	!	!	!	!	!	!	!
8BB/L	.	.	8d\L	.	4dd\	.	4dd\	.	4d/	-tu	.	.	.	.
8B\	.	.	8b\	.	.	.	.	.	.	.	.	.	.	.
8A\	.	.	8a\	.	16dd\LL	.	16dd\LL	.	8ff#\L	de	.	.	.	.
.	.	.	.	.	16ee\	.	16ee\	.	.	.	.	.	.	.
8G\J	.	.	8g\J	.	16ff#\	.	16ff#\	.	8gg\J	.	.	.	.	.
.	.	.	.	.	16gg\JJ	.	16gg\JJ	.	.	.	.	.	.	.
8F#\L	.	.	8f#\L	.	8aa\L	.	8aa\L	.	8aa\L	cur-	.	.	.	.
8E\	.	.	8e\	.	8gg\	.	8gg\	.	8gg\J	.	.	.	.	.
8F#\	.	.	8d\	.	8ff#\	.	8ff#\	.	8ff#\L	-tam	.	.	.	.
8D\J	.	.	8c#\J	.	8ee\J	.	8ee\J	.	8ee\J	.	.	.	.	.
=93	=93	=93	=93	=93	=93	=93	=93	=93	=93	=93	=93	=93	=93	=93
8F#\L	.	.	8B/L	.	8.ddT\L	.	8.dd\L	.	8dd\L	nos	1r	.	1r	.
8F#\	.	.	8A/	.	.	.	.	.	8cc#\J	.	.	.	.	.
.	.	.	.	.	16cc#\Jk	.	16cc#\Jk	.	.	.	.	.	.	.
8G\	.	.	8G/	.	4dd\	.	4dd\	.	4dd\	per	.	.	.	.
8G\J	.	.	8F#/J	.	.	.	.	.	.	.	.	.	.	.
!LO:TX:t=P:problem=mixed beam	!	!	!	!	!LO:TX:t=P:problem=mixed beam	!	!LO:TX:t=P:problem=mixed beam	!	!	!	!	!	!	!
8A\L	.	.	8E/L	.	16gg\LL	.	16gg\LL	.	4gg\	du-	.	.	.	.
.	.	.	.	.	16g/	.	16g/	.	.	.	.	.	.	.
8A\	.	.	8A/	.	16g/	.	16g/	.	.	.	.	.	.	.
.	.	.	.	.	16g/JJ	.	16g/JJ	.	.	.	.	.	.	.
8AA/	.	.	8c#/	.	16g/LL	.	16g/LL	.	4g/	.	.	.	.	.
.	.	.	.	.	16g/	.	16g/	.	.	.	.	.	.	.
8AA/J	.	.	8A/J	.	16g/	.	16g/	.	.	.	.	.	.	.
.	.	.	.	.	16g/JJ	.	16g/JJ	.	.	.	.	.	.	.
=94	=94	=94	=94	=94	=94	=94	=94	=94	=94	=94	=94	=94	=94	=94
!	!	!	!	!	!	!	!	!	!	!	!	!	!	!LO:DY:a
8D\L	.	.	8d\L	.	16f#/LL	.	16f#/LL	.	4f#/	-cas	4g/	.	4g/	p
.	.	.	.	.	16f#/	.	16f#/	.	.	.	.	.	.	.
8D\	.	.	8e\	.	16a/	.	16a/	.	.	.	.	.	.	.
.	.	.	.	.	16a/JJ	.	16a/JJ	.	.	.	.	.	.	.
8F#\	.	.	8f#\	.	16dd\LL	.	16dd\LL	.	4r	.	4r	.	4r	.
.	.	.	.	.	16dd\	.	16dd\	.	.	.	.	.	.	.
8F#\J	.	.	8d\J	.	16ff#\	.	16ff#\	.	.	.	.	.	.	.
.	.	.	.	.	16ff#\JJ	.	16ff#\JJ	.	.	.	.	.	.	.
!LO:TX:t=P:problem=mixed beam	!	!	!	!	!	!	!	!	!	!	!	!	!	!
8E\L	.	.	8g\L	.	16ee\LL	.	16ee\LL	.	4ee\	haſt	4r	.	4r	.
.	.	.	.	.	16ee\	.	16ee\	.	.	.	.	.	.	.
8E\	.	.	8e\	.	16cc#\	.	16cc#\	.	.	.	.	.	.	.
.	.	.	.	.	16cc#\JJ	.	16cc#\JJ	.	.	.	.	.	.	.
8AA/	.	.	8c#\	.	16a/LL	.	16a/LL	.	8g/	vi-	8r	.	8r	.
.	.	.	.	.	16a/	.	16a/	.	.	.	.	.	.	.
8AA/J	.	.	8A\J	.	16g/	.	16g/	.	8g/	-tu	8g/	.	8g/	.
.	.	.	.	.	16g/JJ	.	16g/JJ	.	.	.	.	.	.	.
=95	=95	=95	=95	=95	=95	=95	=95	=95	=95	=95	=95	=95	=95	=95
!	!	!	!	!	!LO:TX:a:t=P:problem=takt zapisany repetycją	!	!LO:TX:a:t=P:problem=takt zapisany repetycją	!	!	!	!LO:TX:a:t=P:problem=takt zapisany repetycją	!	!	!
8D\L	.	.	8d\L	.	16f#/LLyy	.	16f#/LLyy	.	8f#/	de	4g/yy	.	4g/	.
.	.	.	.	.	16f#/yy	.	16f#/yy	.	.	.	.	.	.	.
8D\	.	.	8e\	.	16a/yy	.	16a/yy	.	8a/	Cur-	.	.	.	.
.	.	.	.	.	16a/JJyy	.	16a/JJyy	.	.	.	.	.	.	.
8F#\	.	.	8f#\	.	16dd\LLyy	.	16dd\LLyy	.	8dd\	-tum	4ryy	.	4r	.
.	.	.	.	.	16dd\yy	.	16dd\yy	.	.	.	.	.	.	.
8F#\J	.	.	8d\J	.	16ff#\yy	.	16ff#\yy	.	8ff#\	nos	.	.	.	.
.	.	.	.	.	16ff#\JJyy	.	16ff#\JJyy	.	.	.	.	.	.	.
!LO:TX:t=P:problem=mixed beam	!	!	!	!	!	!	!	!	!	!	!	!	!	!
8E\L	.	.	8g\L	.	16ee\LLyy	.	16ee\LLyy	.	4ee\	.	4ryy	.	4r	.
.	.	.	.	.	16ee\yy	.	16ee\yy	.	.	.	.	.	.	.
8E\	.	.	8e\	.	16cc#\yy	.	16cc#\yy	.	.	.	.	.	.	.
.	.	.	.	.	16cc#\JJyy	.	16cc#\JJyy	.	.	.	.	.	.	.
8AA/	.	.	8c#\	.	16a/LLyy	.	16a/LLyy	.	8g/	per	8ryy	.	8r	.
.	.	.	.	.	16a/yy	.	16a/yy	.	.	.	.	.	.	.
8AA/J	.	.	8A\J	.	16g/yy	.	16g/yy	.	8g/	du-	8g/yy	.	8g/	.
.	.	.	.	.	16g/JJyy	.	16g/JJyy	.	.	.	.	.	.	.
!	!	!	!LO:LB:g=original	!	!	!	!	!	!	!	!	!	!	!
=96	=96	=96	=96	=96	=96	=96	=96	=96	=96	=96	=96	=96	=96	=96
!	!	!	!	!	!	!	!	!	!	!	!	!	!	!LO:DY:a
4D\	.	.	4d\	.	4d/	.	4d/	.	4f#/	-cas	4g/	.	4g/	f
8r	.	.	8r	.	8r	.	8r	.	4r	.	8r	.	8r	.
!	!	!	!	!	!	!LO:DY:a:t=f&colon;	!	!LO:DY:t=f&colon;	!	!	!	!	!	!
8AA/	.	.	8A/	.	16A/LL	f	16A/LL	f	.	.	8g/	.	8g/	.
.	.	.	.	.	16A/JJ	.	16A/JJ	.	.	.	.	.	.	.
!	!	!	!	!	!	!	!LO:LB:g=original	!	!	!	!	!	!LO:LB:g=original	!
8D/L	.	.	8d\L	.	8d/L	.	8d/L	.	2r	.	8cc\L	.	8cc\L	.
8AA/	.	.	8A\	.	8A/	.	8A/	.	.	.	8g\	.	8g\	.
8D/	.	.	8d\	.	8d/	.	8d/	.	.	.	8cc\	.	8cc\	.
8F#/J	.	.	8f#\J	.	8f#/J	.	8f#/J	.	.	.	8ee\J	.	8ee\J	.
=97	=97	=97	=97	=97	=97	=97	=97	=97	=97	=97	=97	=97	=97	=97
*tremolo	*	*	*	*	*	*	*	*	*	*	*	*	*	*
!	!	!	!	!	!	!LO:DY:a:t=p	!	!LO:DY:a:t=p	!	!	!	!	!	!
8D\L	.	.	8d\L	.	8d/L	p	8d/L	p	4dd\	Ad	4cc\	.	4cc\	.
8D\	.	.	8f#\	.	8f#/	.	8f#/	.	.	.	.	.	.	.
8D\	.	.	8a\	.	8a/	.	8a/	.	4ccn\	Reg-	4r	.	4r	.
8D\J	.	.	8ccn\J	.	8ccn/J	.	8ccn/J	.	.	.	.	.	.	.
8F#\L	.	.	8a\L	.	8a/L	.	8a/L	.	8r	.	2r	.	2r	.
8F#\	.	.	8f#\	.	8f#/	.	8f#/	.	8d/	-num	.	.	.	.
8F#\	.	.	8d\	.	8d/	.	8d/	.	8a\	ce-	.	.	.	.
8F#\J	.	.	8f#\J	.	8f#/J	.	8a/J	.	8cc\	-lo-	.	.	.	.
*Xtremolo	*	*	*	*	*	*	*	*	*	*	*	*	*	*
!	!	!	!	!	!	!	!	!	!LO:LB:g=original	!	!	!	!	!
=98	=98	=98	=98	=98	=98	=98	=98	=98	=98	=98	=98	=98	=98	=98
8G\L	.	.	4.g\	.	4.b\	.	8b\L	.	4b\	-ram	00r	.	00r	.
8G\	.	.	.	.	.	.	8gg\	.	.	.	.	.	.	.
8c#\	.	.	.	.	.	.	8ff#\	.	4ee\	per	.	.	.	.
!	!	!	!	!	!	!	!	!	!LO:TX:a:t=P:problem=przekreślona kreska taktowa	!	!	!	!	!
8c#\J	.	.	8g\	.	8b\	.	8ee\J	.	.	.	.	.	.	.
4d\	.	.	8f#\L	.	8a/L	.	8dd\L	.	8dd\L	du-	.	.	.	.
.	.	.	8e\	.	8g/	.	8ccn\	.	8ccn\	.	.	.	.	.
4D/	.	.	8d\	.	8f#/	.	8b\	.	8b\	.	.	.	.	.
.	.	.	8cn\J	.	8e/J	.	8a\J	.	8a\J	.	.	.	.	.
!LO:LB:g=original	!	!	!	!	!	!	!	!	!	!	!	!	!	!
=99	=99	=99	=99	=99	=99	=99	=99	=99	=99	=99	=99	=99	=99	=99
4G\	.	.	8B/L	.	8d/L	.	8g/L	.	4g\	-cas	.	.	.	.
.	.	.	8A/	.	8cn/	.	16a/L	.	.	.	.	.	.	.
.	.	.	.	.	.	.	16b/JJ	.	.	.	.	.	.	.
4r	.	.	8G/	.	8B/	.	16ccn\LL	.	4r	.	.	.	.	.
.	.	.	.	.	.	.	16dd\	.	.	.	.	.	.	.
.	.	.	8F#/J	.	8A/J	.	16ee\	.	.	.	.	.	.	.
.	.	.	.	.	.	.	16ff#\JJ	.	.	.	.	.	.	.
!	!	!	!LO:TX:t=P:problem=mixed beam	!	!	!	!	!	!	!	!	!	!	!
2E\	.	.	8E/L	.	8G/L	.	4gg\	.	4gg\	per	.	.	.	.
.	.	.	8e\	.	8g/	.	.	.	.	.	.	.	.	.
.	.	.	8g\	.	8e/	.	4g/	.	4b\	du-	.	.	.	.
.	.	.	8e\J	.	8g/J	.	.	.	.	.	.	.	.	.
!	!	!	!	!	!LO:LB:g=original	!	!	!	!	!	!	!	!	!
=100	=100	=100	=100	=100	=100	=100	=100	=100	=100	=100	=100	=100	=100	=100
4F#\	.	.	4c#X\	.	4f#/	.	4a#X/	.	4a#X\	-cas	.	.	.	.
!	!	!	!	!	!	!LO:DY:a	!	!	!	!	!	!	!	!
8r	.	.	8r	.	8r	f	8r	.	4r	.	.	.	.	.
!	!	!	!	!	!	!	!	!LO:DY:a:t=f	!	!	!	!	!	!
8G\	.	.	16f#\LL	.	16f#/LL	.	16f#/LL	f	.	.	.	.	.	.
.	.	.	16g\JJ	.	16g/JJ	.	16g/JJ	.	.	.	.	.	.	.
!	!	!	!	!LO:DY:a	!	!	!	!	!	!	!	!	!	!
8F#\L	.	.	8f#\L	f	8f#/L	.	8f#/L	.	2r	.	.	.	.	.
8E\	.	.	8e\	.	8e/	.	8e/	.	.	.	.	.	.	.
8D\	.	.	8d\	.	8d/	.	8d/	.	.	.	.	.	.	.
8C#\J	.	.	8c#X\J	.	8c#X/J	.	8c#X/J	.	.	.	.	.	.	.
=101	=101	=101	=101	=101	=101	=101	=101	=101	=101	=101	=101	=101	=101	=101
!	!	!	!LO:TX:t=P:problem=mixed beam	!	!LO:TX:t=P:problem=mixed beam	!	!LO:TX:t=P:problem=mixed beam	!	!	!	!	!	!	!
4BB/	.	.	8B/L	.	8B/L	.	8B/L	.	2dd\	per	.	.	.	.
.	.	.	8b\	.	8b\	.	8b\	.	.	.	.	.	.	.
4B\	.	.	8dd\	.	8dd\	.	8dd\	.	.	.	.	.	.	.
.	.	.	8b\J	.	8b\J	.	8b\J	.	.	.	.	.	.	.
4G\	.	.	8a\L	.	8a/L	.	8a/L	.	2dd\	du-	.	.	.	.
.	.	.	8g\	.	8g/	.	8g/	.	.	.	.	.	.	.
4E#X\	.	.	8f#\	.	8f#/	.	8f#/	.	.	.	.	.	.	.
.	.	.	8e#X\J	.	8e#X/J	.	8e#X/J	.	.	.	.	.	.	.
=102	=102	=102	=102	=102	=102	=102	=102	=102	=102	=102	=102	=102	=102	=102
1F#;	.	.	1f#;	.	1f#;	.	1f#;	.	1cc#;	.	00r	.	00r	.
=103	=103	=103	=103	=103	=103	=103	=103	=103	=103	=103	=103	=103	=103	=103
!	!	!	!	!	!LO:TX:t=P:problem=mixed beam	!	!LO:TX:t=P:problem=mixed beam	!LO:DY:a	!	!	!	!	!	!
8B\L	.	.	8g\L	.	16b/LL	.	16b/LL	p	4b\	-cas	.	.	.	.
.	.	.	.	.	16bb\	.	16bb\	.	.	.	.	.	.	.
8B\	.	.	8g\	.	16aa#X\	.	16aa#X\	.	.	.	.	.	.	.
.	.	.	.	.	16bb\JJ	.	16bb\JJ	.	.	.	.	.	.	.
8E\	.	.	8en\	.	8gg\L	.	4gg\	.	4r	.	.	.	.	.
8E\J	.	.	8e\J	.	8ee\J	.	.	.	.	.	.	.	.	.
!	!	!	!LO:LB:g=original	!	!	!	!	!	!	!	!	!	!	!
4F#\	.	.	8f#\L	.	8dd\L	.	8ff#\L	.	2r	.	.	.	.	.
.	.	.	8f#\	.	8cc#\	.	8ee\	.	.	.	.	.	.	.
4FF#/	.	.	8f#\	.	8b\	.	8dd\	.	.	.	.	.	.	.
.	.	.	8f#\J	.	8a#X\J	.	8cc#\J	.	.	.	.	.	.	.
!	!	!	!	!	!	!	!LO:LB:g=original	!	!	!	!	!	!	!
=104	=104	=104	=104	=104	=104	=104	=104	=104	=104	=104	=104	=104	=104	=104
!	!	!	!	!	!LO:TX:t=P:problem=mixed beam	!	!LO:TX:t=P:problem=mixed beam	!	!LO:TX:a:t=7	!	!	!	!	!
4BB/	.	.	4g\	.	16b/LL	.	16b/LL	.	00r	.	.	.	.	.
.	.	.	.	.	(>16bb\	.	16bb\	.	.	.	.	.	.	.
.	.	.	.	.	16aa#X\	.	16aa#X\	.	.	.	.	.	.	.
.	.	.	.	.	16bb\JJ)	.	16bb\JJ	.	.	.	.	.	.	.
4E\	.	.	4e\	.	8gg\L	.	4gg\	.	.	.	.	.	.	.
.	.	.	.	.	8ee\J	.	.	.	.	.	.	.	.	.
4F#\	.	.	4f#\	.	8dd\L	.	8ff#\L	.	.	.	.	.	.	.
.	.	.	.	.	8cc#\	.	8ee\	.	.	.	.	.	.	.
4FF#/	.	.	4G/	.	8b\	.	8dd\	.	.	.	.	.	.	.
.	.	.	.	.	8a#X\J	.	8cc#\J	.	.	.	.	.	.	.
=105	=105	=105	=105	=105	=105	=105	=105	=105	=105	=105	=105	=105	=105	=105
4BB/	.	.	4B/	.	4b\	.	4b\	.	.	.	.	.	.	.
!	!	!	!	!	!	!LO:DY:a:t=f	!	!	!	!	!	!	!	!
8r	.	.	8r	.	8r	f	8r	.	.	.	.	.	.	.
!	!	!	!	!	!	!	!	!LO:DY:a:t=f	!	!	!	!	!	!
8FF#/	.	.	8f#\	.	8f#/	.	8f#/	f	.	.	.	.	.	.
8BB/L	.	.	8b\L	.	8b/L	.	8b/L	.	.	.	.	.	.	.
8FF#/	.	.	8f#\	.	8f#/	.	8f#/	.	.	.	.	.	.	.
8BB/	.	.	8b\	.	8b/	.	8b/	.	.	.	.	.	.	.
8D/J	.	.	8dd\J	.	8dd/J	.	8dd/J	.	.	.	.	.	.	.
=106	=106	=106	=106	=106	=106	=106	=106	=106	=106	=106	=106	=106	=106	=106
4BB/	.	.	4b\	.	4b\	.	4b\	.	.	.	8r	.	8r	.
.	.	.	.	.	.	.	.	.	.	.	16cc\LL	.	16ee\LL	.
.	.	.	.	.	.	.	.	.	.	.	16cc\JJ	.	16ee\JJ	.
8r	.	.	8r	.	8r	.	8r	.	.	.	4cc\	.	4ee\	.
8FF#/	.	.	8f#\	.	16f#/LL	.	16f#/LL	.	.	.	.	.	.	.
.	.	.	.	.	16f#/JJ	.	16f#/JJ	.	.	.	.	.	.	.
8BB/L	.	.	8b\L	.	8b/L	.	8b/L	.	.	.	2r	.	2r	.
8FF#/	.	.	8f#\	.	8f#/	.	8f#/	.	.	.	.	.	.	.
8BB/	.	.	8b\	.	8b/	.	8b/	.	.	.	.	.	.	.
8D/J	.	.	8dd\J	.	8dd/J	.	8dd/J	.	.	.	.	.	.	.
!	!	!	!	!	!	!	!	!	!	!	!LO:LB:g=original	!	!	!
=107	=107	=107	=107	=107	=107	=107	=107	=107	=107	=107	=107	=107	=107	=107
4G#X\	.	.	4g#X\	.	4g#X/	.	4g#X/	.	.	.	8r	.	8r	.
.	.	.	.	.	.	.	.	.	.	.	16dd\LL	.	16dd\LL	.
.	.	.	.	.	.	.	.	.	.	.	16dd\JJ	.	16dd\JJ	.
8r	.	.	8r	.	8r	.	8r	.	.	.	4dd\	.	4dd\	.
8E\	.	.	8e\	.	16e/LL	.	16e/LL	.	.	.	.	.	.	.
.	.	.	.	.	16e/JJ	.	16e/JJ	.	.	.	.	.	.	.
!	!	!	!	!	!LO:LB:g=original	!	!	!	!	!	!	!	!	!
8A\L	.	.	8a\L	.	8a/L	.	8a/L	.	.	.	2r	.	2r	.
8E\	.	.	8e\	.	8e/	.	8e/	.	.	.	.	.	.	.
8A\	.	.	8a\	.	8a/	.	8a/	.	.	.	.	.	.	.
8cn\J	.	.	8ccn\J	.	8ccn/J	.	8ccn/J	.	.	.	.	.	.	.
=108	=108	=108	=108	=108	=108	=108	=108	=108	=108	=108	=108	=108	=108	=108
4F#\	.	.	4f#\	.	4f#/	.	4f#/	.	0r	.	8r	.	8r	.
.	.	.	.	.	.	.	.	.	.	.	16cc\LL	.	16cc\LL	.
.	.	.	.	.	.	.	.	.	.	.	16cc\JJ	.	16cc\JJ	.
8r	.	.	8r	.	8r	.	8r	.	.	.	4cc\	.	4cc\	.
8D\	.	.	8d\	.	8d/	.	16d/LL	.	.	.	.	.	.	.
.	.	.	.	.	.	.	16d/JJ	.	.	.	.	.	.	.
8G\L	.	.	8g\L	.	8g/L	.	8g/L	.	.	.	2r	.	2r	.
8B\	.	.	8b\	.	8b/	.	8b/	.	.	.	.	.	.	.
8G\	.	.	8g\	.	8g/	.	8g/	.	.	.	.	.	.	.
8E\J	.	.	8e\J	.	8e/J	.	8e/J	.	.	.	.	.	.	.
=109	=109	=109	=109	=109	=109	=109	=109	=109	=109	=109	=109	=109	=109	=109
8Cn/L	.	.	8c#X/L	.	8c#X/L	.	8c#X/L	.	.	.	8r	.	8r	.
8AA/	.	.	8A/J	.	8a/	.	8A/	.	.	.	8g/	.	8g/	.
8D/	.	.	8d\L	.	8d/	.	8d/	.	.	.	8cc\L	.	8cc\L	.
8F#/J	.	.+	8f#\J	.	8f#/J	.	8f#/J	.	.	.	8ee\J	.	8ee\J	.
!LO:LB:g=original	!	!	!	!	!	!	!	!	!	!	!	!	!	!
8G\L	.	.	8g\L	.	8g/L	.	8g/L	.	.	.	8ff\L	.	8ff\L	.
8E\	.	.	8e\	.	8e/	.	8e/	.	.	.	8dd\	.	8dd\	.
8F#\	.	.	8f#\	.	8f#/	.	8f#/	.	.	.	8cc\	.	8ee\	.
!	!	!	!LO:TX:a:t=P:problem=po tym takcie skreślony takt	!	!	!	!	!	!	!	!	!	!	!
8D\J	.	.	8d\J	.	8d/J	.	8d/J	.	.	.	8ee\J	.	8cc\J	.
!	!	!	!LO:LB:g=original	!	!	!	!	!	!	!	!	!	!	!
=110	=110	=110	=110	=110	=110	=110	=110	=110	=110	=110	=110	=110	=110	=110
4A\	.	.	4a\	.	4a/	.	4a/	.	1r	.	4gg\	.	4gg\	.
!LO:TX:t=P:problem=mixed beam	!	!	!	!	!	!	!	!	!	!	!	!	!	!
8AA/L	.	.	4r	.	4r	.	8r	.	.	.	4r	.	4r	.
8B\J	.	.	.	.	.	.	16a/LL	.	.	.	.	.	.	.
.	.	.	.	.	.	.	16b/JJ	.	.	.	.	.	.	.
8A\L	.	.	2r	.	2r	.	8a/L	.	.	.	2r	.	2r	.
8G\	.	.	.	.	.	.	8g/	.	.	.	.	.	.	.
8F#\	.	.	.	.	.	.	8f#/	.	.	.	.	.	.	.
!	!	!	!LO:TX:b:i:t=Dal Segno&colon;	!	!LO:TX:b:i:t=Dal Segno	!	!LO:TX:b:i:t=Da Capo	!	!	!	!LO:TX:b:i:t=Dal Segno	!	!LO:TX:b:i:t=Dal Segno	!
8E\J	.	.	.	.	.	.	8e/J	.	.	.	.	.	.	.
!LO:TX:a:t=[segno]:problem=znak segno na kresce taktowej	!	!	!LO:TX:a:t=[segno]:problem=znak segno na kresce taktowej	!	!LO:TX:a:t=[segno]:problem=znak segno na kresce taktowej	!	!LO:TX:a:t=[segno]:problem=znak segno na kresce taktowej	!	!LO:TX:a:t=[segno]:problem=znak segno na kresce taktowej	!	!LO:TX:a:t=[segno]:problem=znak segno na kresce taktowej	!	!LO:TX:a:t=[segno]:problem=znak segno na kresce taktowej	!
==	==	==	==	==	==	==	==	==	==	==	==	==	==	==
*-	*-	*-	*-	*-	*-	*-	*-	*-	*-	*-	*-	*-	*-	*-
!!!system-decoration: [g1]s3[g2]s7
!!!RDF**kern: > = above
!!!RDF**kern: < = below
!!!RDF**dynam: p = "Pia"
!!!RDF**dynam: f = "for"
!!!RDF**kern: | = vertical stroke
!!!ENC: Marta Lawrence
!!!END: 2020-11-17
!!!ENC: Marcin Jachim
!!!END: 2020-06-13
